;FLAVOR:Marlin
;TIME:4045
;Filament used: 4.0237m
;Layer height: 0.2
;MINX:-74.653
;MINY:-23.331
;MINZ:0.2
;MAXX:-25.347
;MAXY:23.331
;MAXZ:38
;Generated with Cura_SteamEngine 5.0.0
M82 ;absolute extrusion mode
M104 S220.0 ; set nozzle temperature but do not wait
M190 S65 ; set bed temperature and wait
M109 S220.0 ; block waiting for nozzle temp
G21 ;metric values
G90 ;absolute positioning
M82 ;set extruder to absolute mode
M107 ;start with the fan off
G28 ;Home
G1 Z15.0 F1000;short move
G92 E0 ;zero the extruded length
G1 F200 E3 ;extrude 3mm of feed stock adjust so I don't have to remove any filament
G92 E0 ;zero the extruded length again
G1 F4000 ;move to bed
;Put printing message on LCD screen
M117 Printing...
;G5; this is in order to resume on Power failure (only works on SD prints)
G92 E0
G92 E0
G1 F3000 E-4
;LAYER_COUNT:190
;LAYER:0
M107
G1 F600 Z1.2
G0 F3600 X-30.331 Y22.45 Z1.2
;TYPE:SUPPORT
G1 F600 Z0.2
G1 F3000 E0
G1 F1500 X-30.331 Y23.331 E0.04762
G1 F3000 E-3.95238
G0 F3600 X-56.329 Y23.331
G1 F3000 E0.04762
G1 F1500 X-56.329 Y22.45 E0.09523
G1 F3000 E-3.90477
G0 F3600 X-74.653 Y22.403
G0 X-74.653 Y-22.403
G0 X-56.329 Y-22.45
G1 F3000 E0.09523
G1 F1500 X-56.329 Y-23.331 E0.14285
G1 F3000 E-3.85715
G0 F3600 X-30.331 Y-23.331
G1 F3000 E0.14285
G1 F1500 X-30.331 Y-22.45 E0.19046
G1 F3000 E-3.80954
;MESH:????????????????????????????????????2mm???.stl
G0 F3600 X-30.331 Y-21.07
G0 X-27.085 Y-15.26
G1 F3000 E0.19046
G0 F3600 X-26.325 Y-15.26
;TYPE:WALL-OUTER
G1 F1500 X-26.325 Y-21.425 E0.52367
G1 X-73.674 Y-21.424 E3.08277
G1 X-73.674 Y21.424 E5.39861
G1 X-26.325 Y21.425 E7.95772
G1 X-26.325 Y-14.768 E9.91387
G0 F1350 X-26.325 Y-15.26
G0 F3600 X-26.325 Y-15.61
G0 X-26.975 Y-15.26
;TYPE:WALL-INNER
G1 F1500 X-26.975 Y-20.775 E10.21194
G1 X-73.024 Y-20.774 E12.70078
G1 X-73.024 Y20.774 E14.94636
G1 X-26.975 Y20.775 E17.4352
G1 X-26.975 Y-14.768 E19.35622
G0 F1350 X-26.975 Y-15.26
G0 F3600 X-27.085 Y-15.26
G0 X-33.834 Y-9.356
G0 X-34.521 Y-9.034
;TYPE:WALL-OUTER
G1 F1500 X-34.358 Y-8.573 E19.38265
G1 X-34.337 Y-8.075 E19.40959
G1 X-34.453 Y-7.616 E19.43517
G1 X-34.7 Y-7.196 E19.46151
G1 X-35.06 Y-6.867 E19.48787
G1 X-35.498 Y-6.655 E19.51417
G1 X-36.022 Y-6.581 E19.54277
G1 X-36.517 Y-6.666 E19.56991
G1 X-36.909 Y-6.847 E19.59325
G1 X-37.274 Y-7.167 E19.61948
G1 X-37.532 Y-7.578 E19.64571
G1 X-37.653 Y-7.978 E19.6683
G1 X-37.659 Y-8.488 E19.69587
G1 X-37.512 Y-8.972 E19.7232
G1 X-37.219 Y-9.394 E19.75097
G1 X-36.839 Y-9.697 E19.77724
G1 X-36.385 Y-9.878 E19.80365
G1 X-35.922 Y-9.923 E19.8288
G1 X-35.654 Y-9.887 E19.84341
G1 X-35.2 Y-9.72 E19.86956
G1 X-34.813 Y-9.429 E19.89573
G0 F1350 X-34.809 Y-9.426
G0 X-34.521 Y-9.034
G0 F3600 X-34.405 Y-8.704
G0 X-33.682 Y-8.072
;TYPE:WALL-INNER
G1 F1500 X-33.786 Y-7.561 E19.92391
G1 X-33.883 Y-7.304 E19.93876
G1 X-34.153 Y-6.835 E19.96801
G1 X-34.533 Y-6.454 E19.99709
G1 X-34.762 Y-6.289 E20.01235
G1 X-35.224 Y-6.059 E20.04024
G1 X-35.763 Y-5.943 E20.07004
G1 X-36.092 Y-5.935 E20.08782
G1 X-36.593 Y-6.001 E20.11514
G1 X-37.084 Y-6.201 E20.14379
G1 X-37.389 Y-6.4 E20.16347
G1 X-37.772 Y-6.747 E20.19141
G1 X-38.065 Y-7.184 E20.21984
G1 X-38.268 Y-7.76 E20.25285
G1 X-38.289 Y-7.844 E20.25753
G1 X-38.311 Y-8.441 E20.28982
G1 X-38.27 Y-8.724 E20.30527
G1 X-38.088 Y-9.272 E20.33648
G1 X-37.771 Y-9.755 E20.36771
G1 X-37.338 Y-10.144 E20.39917
G1 X-37.098 Y-10.293 E20.41444
G1 X-36.602 Y-10.497 E20.44342
G1 X-36.067 Y-10.568 E20.47259
G1 X-35.55 Y-10.531 E20.50061
G1 X-34.952 Y-10.327 E20.53476
G1 X-34.502 Y-10.022 E20.56414
G1 X-34.296 Y-9.825 E20.57954
G1 X-33.977 Y-9.4 E20.60826
G1 X-33.774 Y-8.903 E20.63728
G1 X-33.71 Y-8.618 E20.65307
G1 X-33.707 Y-8.564 E20.65599
G0 F1350 X-33.682 Y-8.072
G0 F3600 X-33.572 Y-8.056
G0 X-34.345 Y-6.544
G0 X-35.559 Y-5.913
G0 X-36.923 Y-6.06
G0 X-38.925 Y-7.709
G1 F1500 X-38.961 Y-8.439 E20.69549
G1 X-38.893 Y-8.911 E20.72127
G1 X-38.731 Y-9.429 E20.7506
G1 X-38.366 Y-10.041 E20.78911
G1 X-38.057 Y-10.388 E20.81423
G1 X-37.57 Y-10.777 E20.84791
G1 X-36.997 Y-11.046 E20.88213
G1 X-36.53 Y-11.17 E20.90824
G1 X-35.963 Y-11.224 E20.93902
G1 X-35.411 Y-11.166 E20.96902
G1 X-34.871 Y-10.995 E20.99964
G1 X-34.449 Y-10.781 E21.02521
G1 X-33.948 Y-10.406 E21.05903
G1 X-33.542 Y-9.914 E21.09351
G1 X-33.309 Y-9.504 E21.119
G1 X-33.096 Y-8.907 E21.15326
G1 X-33.034 Y-8.259 E21.18844
G1 X-33.068 Y-7.793 E21.21369
G1 X-33.218 Y-7.197 E21.24691
G1 X-33.501 Y-6.648 E21.28029
G1 X-33.797 Y-6.26 E21.30667
G1 X-34.269 Y-5.83 E21.34118
G1 X-34.813 Y-5.531 E21.37473
G1 X-35.254 Y-5.378 E21.39996
G1 X-35.779 Y-5.284 E21.42878
G1 X-36.512 Y-5.327 E21.46847
G1 X-37.028 Y-5.47 E21.49741
G1 X-37.57 Y-5.724 E21.52976
G1 X-38.04 Y-6.096 E21.56216
G1 X-38.354 Y-6.444 E21.58749
G1 X-38.654 Y-6.907 E21.61731
G1 X-38.773 Y-7.241 E21.63647
G0 F1350 X-38.889 Y-7.569
G0 X-38.925 Y-7.709
G0 F3600 X-33.834 Y5.644
G0 X-34.521 Y5.966
;TYPE:WALL-OUTER
G1 F1500 X-34.358 Y6.427 E21.6629
G1 X-34.337 Y6.925 E21.68984
G1 X-34.453 Y7.384 E21.71543
G1 X-34.7 Y7.804 E21.74176
G1 X-35.06 Y8.133 E21.76812
G1 X-35.498 Y8.345 E21.79442
G1 X-35.982 Y8.423 E21.82092
G1 X-36.466 Y8.356 E21.84732
G1 X-36.909 Y8.153 E21.87366
G1 X-37.274 Y7.833 E21.8999
G1 X-37.532 Y7.422 E21.92612
G1 X-37.66 Y6.955 E21.9523
G1 X-37.648 Y6.462 E21.97895
G1 X-37.495 Y5.999 E22.0053
G1 X-37.219 Y5.606 E22.03126
G1 X-36.79 Y5.282 E22.06032
G1 X-36.345 Y5.117 E22.08597
G1 X-35.922 Y5.077 E22.10893
G1 X-35.654 Y5.113 E22.12355
G1 X-35.2 Y5.28 E22.14969
G1 X-34.813 Y5.571 E22.17586
G0 F1350 X-34.809 Y5.574
G0 X-34.521 Y5.966
G0 F3600 X-34.405 Y6.296
G0 X-33.682 Y6.928
;TYPE:WALL-INNER
G1 F1500 X-33.786 Y7.439 E22.20405
G1 X-33.883 Y7.696 E22.21889
G1 X-34.153 Y8.165 E22.24814
G1 X-34.533 Y8.546 E22.27722
G1 X-34.762 Y8.711 E22.29248
G1 X-35.219 Y8.939 E22.32008
G1 X-35.763 Y9.057 E22.35017
G1 X-36.052 Y9.069 E22.3658
G1 X-36.632 Y8.987 E22.39746
G1 X-37.171 Y8.757 E22.42913
G1 X-37.625 Y8.404 E22.46022
G1 X-37.814 Y8.195 E22.47545
G1 X-38.101 Y7.747 E22.5042
G1 X-38.268 Y7.24 E22.53305
G1 X-38.31 Y6.808 E22.55651
G1 X-38.284 Y6.324 E22.58271
G1 X-38.27 Y6.276 E22.58541
G1 X-38.108 Y5.768 E22.61423
G1 X-37.823 Y5.317 E22.64306
G1 X-37.573 Y5.054 E22.66268
G1 X-37.168 Y4.741 E22.69034
G1 X-36.602 Y4.503 E22.72353
G1 X-36.067 Y4.431 E22.7527
G1 X-35.544 Y4.47 E22.78105
G1 X-35.047 Y4.632 E22.8093
G1 X-34.502 Y4.978 E22.84419
G1 X-34.296 Y5.175 E22.8596
G1 X-33.977 Y5.6 E22.88832
G1 X-33.774 Y6.097 E22.91733
G1 X-33.71 Y6.382 E22.93312
G1 X-33.707 Y6.436 E22.93604
G0 F1350 X-33.682 Y6.928
G0 F3600 X-33.572 Y6.944
G0 X-34.123 Y5.291
G0 X-36.771 Y3.875
G1 F1500 X-36.139 Y3.785 E22.97055
G1 X-35.587 Y3.805 E23.0004
G1 X-35.241 Y3.881 E23.01955
G1 X-34.61 Y4.118 E23.05598
G1 X-34.127 Y4.447 E23.08756
G1 X-33.782 Y4.776 E23.11333
G1 X-33.413 Y5.278 E23.147
G1 X-33.168 Y5.862 E23.18123
G1 X-33.062 Y6.337 E23.20753
G1 X-33.029 Y6.854 E23.23553
G1 X-33.068 Y7.207 E23.25473
G1 X-33.218 Y7.803 E23.28795
G1 X-33.501 Y8.352 E23.32133
G1 X-33.797 Y8.74 E23.3477
G1 X-34.269 Y9.17 E23.38221
G1 X-34.813 Y9.469 E23.41576
G1 X-35.254 Y9.622 E23.44099
G1 X-35.8 Y9.718 E23.47096
G1 X-36.512 Y9.673 E23.50952
G1 X-36.977 Y9.552 E23.53548
G1 X-37.484 Y9.327 E23.56546
G1 X-38.04 Y8.904 E23.60322
G1 X-38.354 Y8.556 E23.62856
G1 X-38.635 Y8.129 E23.65618
G1 X-38.775 Y7.803 E23.67536
G1 X-38.925 Y7.291 E23.70419
G1 X-38.961 Y6.561 E23.7437
G1 X-38.893 Y6.089 E23.76947
G1 X-38.733 Y5.576 E23.79851
G1 X-38.365 Y4.959 E23.83734
G1 X-38.057 Y4.612 E23.86242
G1 X-37.666 Y4.288 E23.88986
G1 X-37.308 Y4.09 E23.91198
G1 X-37.228 Y4.058 E23.91663
G0 F1350 X-36.771 Y3.875
G0 F3600 X-34.92 Y4.632
G0 X-33.973 Y5.527
G0 X-27.625 Y20.125
G1 F1500 X-27.625 Y-15.26 E25.82911
G1 X-27.625 Y-20.125 E26.09205
G1 X-72.374 Y-20.124 E28.51064
G1 X-72.375 Y12.204 E30.25789
G1 X-72.374 Y20.124 E30.68595
G1 X-28.117 Y20.125 E33.07794
G0 F1350 X-27.625 Y20.125
G0 F3600 X-56.133 Y8.308
G0 X-56.7 Y7.804
;TYPE:WALL-OUTER
G1 F1500 X-57.06 Y8.133 E33.1043
G1 X-57.498 Y8.345 E33.1306
G1 X-57.982 Y8.423 E33.15709
G1 X-58.466 Y8.356 E33.1835
G1 X-58.909 Y8.153 E33.20984
G1 X-59.274 Y7.833 E33.23607
G1 X-59.532 Y7.422 E33.2623
G1 X-59.66 Y6.955 E33.28847
G1 X-59.648 Y6.462 E33.31513
G1 X-59.495 Y5.999 E33.34148
G1 X-59.219 Y5.606 E33.36744
G1 X-58.79 Y5.282 E33.39649
G1 X-58.345 Y5.117 E33.42214
G1 X-57.922 Y5.077 E33.44511
G1 X-57.654 Y5.113 E33.45972
G1 X-57.2 Y5.28 E33.48587
G1 X-56.809 Y5.574 E33.51231
G1 X-56.521 Y5.966 E33.5386
G1 X-56.358 Y6.427 E33.56503
G1 X-56.337 Y6.925 E33.59197
G1 X-56.451 Y7.38 E33.61732
G0 F1350 X-56.452 Y7.384
G0 X-56.7 Y7.804
G0 F3600 X-56.958 Y8.04
G0 X-56.462 Y8.633
G0 X-57.907 Y9.125
G0 X-59.23 Y8.783
G0 X-60.074 Y7.877
G0 X-60.296 Y7.123
;TYPE:WALL-INNER
G1 F1500 X-60.311 Y6.559 E33.64781
G1 X-60.27 Y6.276 E33.66327
G1 X-60.085 Y5.721 E33.69489
G1 X-59.775 Y5.25 E33.72536
G1 X-59.338 Y4.856 E33.75716
G1 X-59.049 Y4.686 E33.77528
G1 X-58.602 Y4.503 E33.80139
G1 X-58.067 Y4.431 E33.83057
G1 X-57.544 Y4.47 E33.85891
G1 X-57.018 Y4.643 E33.88884
G1 X-56.502 Y4.978 E33.92209
G1 X-56.296 Y5.175 E33.9375
G1 X-55.982 Y5.593 E33.96575
G1 X-55.773 Y6.097 E33.99524
G1 X-55.71 Y6.382 E34.01102
G1 X-55.681 Y6.918 E34.04003
G1 X-55.786 Y7.439 E34.06875
G1 X-55.882 Y7.696 E34.08358
G1 X-56.178 Y8.197 E34.11503
G1 X-56.601 Y8.606 E34.14683
G1 X-57.112 Y8.892 E34.17848
G1 X-57.376 Y8.983 E34.19358
G1 X-57.947 Y9.074 E34.22483
G1 X-58.539 Y9.012 E34.257
G1 X-59.084 Y8.799 E34.28862
G1 X-59.323 Y8.654 E34.30373
G1 X-59.742 Y8.289 E34.33377
G1 X-60.032 Y7.868 E34.3614
G1 X-60.154 Y7.612 E34.37672
G1 X-60.159 Y7.595 E34.37768
G0 F1350 X-60.296 Y7.123
G0 F3600 X-60.928 Y7.277
G1 F1500 X-60.961 Y6.56 E34.41647
G1 X-60.893 Y6.089 E34.44219
G1 X-60.726 Y5.559 E34.47223
G1 X-60.365 Y4.959 E34.51007
G1 X-60.057 Y4.612 E34.53515
G1 X-59.666 Y4.288 E34.5626
G1 X-59.308 Y4.09 E34.58471
G1 X-58.771 Y3.875 E34.61597
G1 X-58.139 Y3.785 E34.65047
G1 X-57.587 Y3.805 E34.68033
G1 X-57.241 Y3.881 E34.69947
G1 X-56.681 Y4.082 E34.73163
G1 X-56.126 Y4.447 E34.76753
G1 X-55.783 Y4.776 E34.79322
G1 X-55.46 Y5.201 E34.82207
G1 X-55.167 Y5.862 E34.86115
G1 X-55.062 Y6.337 E34.88744
G1 X-55.029 Y6.849 E34.91517
G1 X-55.068 Y7.207 E34.93464
G1 X-55.189 Y7.719 E34.96307
G1 X-55.5 Y8.352 E35.00119
G1 X-55.797 Y8.74 E35.0276
G1 X-56.195 Y9.114 E35.05712
G1 X-56.813 Y9.469 E35.09564
G1 X-57.254 Y9.622 E35.12086
G1 X-57.8 Y9.718 E35.15083
G1 X-58.512 Y9.673 E35.18939
G1 X-58.977 Y9.552 E35.21535
G1 X-59.484 Y9.327 E35.24533
G1 X-60.04 Y8.904 E35.28309
G1 X-60.354 Y8.556 E35.30843
G1 X-60.652 Y8.097 E35.338
G1 X-60.775 Y7.803 E35.35523
G1 X-60.791 Y7.75 E35.35822
G0 F1350 X-60.928 Y7.277
G0 F3600 X-59.875 Y-6.7
G0 X-59.274 Y-7.167
;TYPE:WALL-OUTER
G1 F1500 X-59.532 Y-7.578 E35.38445
G1 X-59.66 Y-8.045 E35.41062
G1 X-59.648 Y-8.538 E35.43727
G1 X-59.495 Y-9.001 E35.46363
G1 X-59.219 Y-9.394 E35.48958
G1 X-58.839 Y-9.697 E35.51585
G1 X-58.385 Y-9.878 E35.54227
G1 X-57.922 Y-9.923 E35.56741
G1 X-57.654 Y-9.887 E35.58202
G1 X-57.2 Y-9.72 E35.60817
G1 X-56.809 Y-9.426 E35.63461
G1 X-56.522 Y-9.034 E35.66087
G1 X-56.358 Y-8.573 E35.68731
G1 X-56.337 Y-8.075 E35.71425
G1 X-56.452 Y-7.616 E35.73983
G1 X-56.7 Y-7.196 E35.76619
G1 X-57.06 Y-6.867 E35.79255
G1 X-57.41 Y-6.686 E35.81384
G1 X-57.903 Y-6.578 E35.84112
G1 X-58.423 Y-6.629 E35.86936
G1 X-58.893 Y-6.835 E35.8971
G1 X-58.903 Y-6.844 E35.89782
G0 F1350 X-59.274 Y-7.167
G0 F3600 X-59.46 Y-7.463
G0 X-60.134 Y-7.085
G0 X-58.923 Y-6.06
G0 X-57.559 Y-5.913
G0 X-56.345 Y-6.544
G0 X-55.677 Y-7.741
G0 X-55.752 Y-8.843
;TYPE:WALL-INNER
G1 F1500 X-55.682 Y-8.214 E35.93203
G1 X-55.703 Y-7.934 E35.94721
G1 X-55.824 Y-7.43 E35.97522
G1 X-56.071 Y-6.961 E36.00387
G1 X-56.249 Y-6.728 E36.01972
G1 X-56.628 Y-6.372 E36.04782
G1 X-57.112 Y-6.108 E36.07762
G1 X-57.376 Y-6.017 E36.09271
G1 X-57.949 Y-5.926 E36.12407
G1 X-58.449 Y-5.974 E36.15122
G1 X-58.773 Y-6.068 E36.16945
G1 X-59.276 Y-6.31 E36.19962
G1 X-59.662 Y-6.629 E36.22668
G1 X-60.032 Y-7.132 E36.26043
G1 X-60.154 Y-7.388 E36.27576
G1 X-60.296 Y-7.877 E36.30328
G1 X-60.311 Y-8.441 E36.33377
G1 X-60.27 Y-8.724 E36.34923
G1 X-60.085 Y-9.279 E36.38085
G1 X-59.771 Y-9.755 E36.41167
G1 X-59.338 Y-10.144 E36.44313
G1 X-59.098 Y-10.293 E36.4584
G1 X-58.602 Y-10.497 E36.48738
G1 X-58.067 Y-10.568 E36.51655
G1 X-57.55 Y-10.531 E36.54457
G1 X-56.944 Y-10.323 E36.57919
G1 X-56.502 Y-10.022 E36.6081
G1 X-56.296 Y-9.825 E36.6235
G1 X-55.952 Y-9.351 E36.65516
G1 X-55.932 Y-9.301 E36.65807
G0 F1350 X-55.752 Y-8.843
G0 F3600 X-55.648 Y-8.874
G0 X-55.797 Y-6.26
G1 F1500 X-56.241 Y-5.85 E36.69073
G1 X-56.813 Y-5.531 E36.72613
G1 X-57.254 Y-5.378 E36.75136
G1 X-57.779 Y-5.284 E36.78018
G1 X-58.512 Y-5.327 E36.81987
G1 X-59.028 Y-5.47 E36.84881
G1 X-59.57 Y-5.724 E36.88116
G1 X-60.04 Y-6.096 E36.91356
G1 X-60.354 Y-6.444 E36.93889
G1 X-60.652 Y-6.903 E36.96847
G1 X-60.889 Y-7.569 E37.00667
G1 X-60.96 Y-8.042 E37.03252
G1 X-60.954 Y-8.6 E37.06268
G1 X-60.78 Y-9.288 E37.10104
G1 X-60.58 Y-9.717 E37.12662
G1 X-60.278 Y-10.161 E37.15564
G1 X-59.757 Y-10.641 E37.19393
G1 X-59.358 Y-10.889 E37.21932
G1 X-58.77 Y-11.125 E37.25357
G1 X-58.139 Y-11.214 E37.28801
G1 X-57.587 Y-11.195 E37.31786
G1 X-56.871 Y-10.995 E37.35804
G1 X-56.449 Y-10.781 E37.38361
G1 X-55.996 Y-10.451 E37.41391
G1 X-55.541 Y-9.914 E37.45195
G1 X-55.31 Y-9.504 E37.47738
G1 X-55.121 Y-9 E37.50647
G1 X-55.034 Y-8.259 E37.5468
G1 X-55.068 Y-7.793 E37.57205
G1 X-55.189 Y-7.281 E37.60049
G1 X-55.5 Y-6.651 E37.63846
G0 F1350 X-55.501 Y-6.648
G0 X-55.797 Y-6.26
G0 F3600 X-57.036 Y-4.793
;TYPE:SKIN
G1 F1500 X-57.658 Y-4.677 E37.67266
G1 X-58.205 Y-4.673 E37.70222
G1 X-58.886 Y-4.769 E37.73939
G1 X-59.37 Y-4.946 E37.76725
G1 X-59.792 Y-5.141 E37.79237
G1 X-60.21 Y-5.435 E37.81999
G1 X-60.726 Y-5.916 E37.85812
G1 X-61.085 Y-6.424 E37.89174
G1 X-61.344 Y-6.958 E37.92381
G1 X-61.532 Y-7.589 E37.9594
G1 X-61.577 Y-8.056 E37.98476
G1 X-61.543 Y-8.829 E38.02658
G1 X-61.374 Y-9.458 E38.06178
G1 X-61.119 Y-10.016 E38.09494
G1 X-60.648 Y-10.674 E38.13867
G1 X-60.16 Y-11.108 E38.17397
G1 X-59.645 Y-11.433 E38.20688
G1 X-58.965 Y-11.711 E38.24659
G1 X-58.581 Y-11.785 E38.26772
G1 X-57.756 Y-11.831 E38.31238
G1 X-57.087 Y-11.715 E38.34908
G1 X-56.403 Y-11.469 E38.38837
G1 X-55.779 Y-11.064 E38.42857
G1 X-55.326 Y-10.638 E38.46218
G1 X-54.841 Y-9.957 E38.50737
G1 X-54.594 Y-9.366 E38.54199
G1 X-54.465 Y-8.869 E38.56974
G1 X-54.417 Y-8.304 E38.60039
G1 X-54.454 Y-7.719 E38.63207
G1 X-54.665 Y-6.924 E38.67653
G1 X-54.957 Y-6.355 E38.71109
G1 X-55.245 Y-5.946 E38.73813
G1 X-55.651 Y-5.543 E38.76905
G1 X-56.061 Y-5.227 E38.79702
G1 X-56.526 Y-4.983 E38.82541
G1 X-56.562 Y-4.967 E38.82753
G1 X-56.574 Y-4.962 E38.82824
G0 F1350 X-57.036 Y-4.793
G0 F3600 X-60.488 Y4.171
G1 F1500 X-60.039 Y3.796 E38.85985
G1 X-59.581 Y3.537 E38.88829
G1 X-58.967 Y3.29 E38.92406
G1 X-58.448 Y3.202 E38.95251
G1 X-57.935 Y3.159 E38.98034
G1 X-57.486 Y3.197 E39.00469
G1 X-57.012 Y3.308 E39.031
G1 X-56.321 Y3.574 E39.07102
G1 X-55.781 Y3.934 E39.1061
G1 X-55.403 Y4.272 E39.13351
G1 X-55.055 Y4.705 E39.16353
G1 X-54.788 Y5.146 E39.19139
G1 X-54.569 Y5.696 E39.22339
G1 X-54.456 Y6.228 E39.25278
G1 X-54.426 Y7.068 E39.29821
G1 X-54.546 Y7.708 E39.33341
G1 X-54.75 Y8.263 E39.36536
G1 X-55.177 Y8.97 E39.41
G1 X-55.649 Y9.454 E39.44654
G1 X-56.147 Y9.816 E39.47982
G1 X-56.882 Y10.161 E39.5237
G1 X-57.549 Y10.306 E39.56059
G1 X-58.141 Y10.33 E39.59262
G1 X-58.968 Y10.208 E39.6378
G1 X-59.577 Y9.967 E39.6732
G1 X-60.095 Y9.656 E39.70585
G1 X-60.675 Y9.144 E39.74767
G1 X-61.083 Y8.579 E39.78533
G1 X-61.344 Y8.042 E39.8176
G1 X-61.532 Y7.411 E39.85319
G1 X-61.577 Y6.955 E39.87795
G1 X-61.57 Y6.371 E39.90952
G1 X-61.48 Y5.896 E39.93565
G1 X-61.223 Y5.167 E39.97743
G1 X-61.19 Y5.1 E39.98146
G1 X-60.884 Y4.622 E40.01214
G1 X-60.812 Y4.54 E40.01804
G0 F1350 X-60.488 Y4.171
G0 F3600 X-57.577 Y4.411
G0 X-36.968 Y10.208
G1 F1500 X-37.577 Y9.967 E40.05344
G1 X-38.095 Y9.656 E40.08609
G1 X-38.709 Y9.104 E40.13072
G1 X-39.084 Y8.579 E40.16559
G1 X-39.314 Y8.129 E40.1929
G1 X-39.483 Y7.602 E40.22281
