;FLAVOR:Marlin
;TIME:17517
;Filament used: 15.7186m
;Layer height: 0.15
;MINX:-94.326
;MINY:-57.288
;MINZ:0.25
;MAXX:80.178
;MAXY:25.006
;MAXZ:44.5
;Generated with Cura_SteamEngine 5.2.1
M82 ;absolute extrusion mode
M104 S220.0 ; set nozzle temperature but do not wait
M190 S65 ; set bed temperature and wait
M109 S220.0 ; block waiting for nozzle temp
G21 ;metric values
G90 ;absolute positioning
M82 ;set extruder to absolute mode
M107 ;start with the fan off
G28 ;Home
G1 Z15.0 F1000;short move
G92 E0 ;zero the extruded length
G1 F200 E3 ;extrude 3mm of feed stock adjust so I don't have to remove any filament
G92 E0 ;zero the extruded length again
G1 F4000 ;move to bed
;Put printing message on LCD screen
M117 Printing...
;G5; this is in order to resume on Power failure (only works on SD prints)
G92 E0
G92 E0
G1 F3000 E-4
;LAYER_COUNT:296
;LAYER:0
M107
G1 F600 Z1.25
G0 F3600 X37.739 Y-4.332 Z1.25
;TYPE:SUPPORT
G1 F600 Z0.25
G1 F3000 E0
G1 F1500 X38.955 Y-4.332 E0.08215
G1 F3000 E-3.91785
G0 F3600 X38.86 Y-4.332
G0 X38.86 Y-8.665
G0 X38.955 Y-8.665
G1 F3000 E0.08215
G1 F1500 X37.739 Y-8.665 E0.16431
G1 F3000 E-3.83569
G0 F3600 X38.872 Y3.518
G0 X46.072 Y4.333
G1 F3000 E0.16431
G1 F1500 X52.079 Y4.333 E0.57014
G1 X51.996 Y4.582
G1 X51.996 Y3.435 E0.64763
G1 F3000 E-3.35237
G0 F3600 X51.996 Y3.53
G0 X47.663 Y3.53
G0 X47.663 Y3.435
G1 F3000 E0.64763
G1 F1500 X47.663 Y4.582 E0.72512
G1 F3000 E-3.27488
G0 F3600 X73.302 Y4.333
G1 F3000 E0.72512
G1 F1500 X78.941 Y4.333 E1.10609
G0 F3600 X77.994 Y4.444
G1 F1500 X77.994 Y3.435 E1.17425
G1 F3000 E-2.82575
G0 F3600 X77.994 Y3.53
G0 X73.661 Y3.53
G0 X73.661 Y3.435
G1 F3000 E1.17425
G1 F1500 X73.661 Y4.371 E1.23749
G1 F3000 E-2.76251
G0 F3600 X38.872 Y3.518
G0 X38.86 Y-30.33
G0 X38.955 Y-30.33
G1 F3000 E1.23749
G1 F1500 X37.739 Y-30.33 E1.31964
G1 F3000 E-2.68036
G0 F3600 X-59.783 Y-17.332
G1 F3000 E1.31964
G1 F1500 X-65.57 Y-17.332 E1.71061
G0 F3600 X-64.995 Y-17.808
G1 F1500 X-64.995 Y-16.781 E1.77999
G1 F3000 E-2.22001
G0 F3600 X-64.995 Y-16.876
G0 X-60.662 Y-16.876
G0 X-60.662 Y-16.781
G1 F3000 E1.77999
G1 F1500 X-60.662 Y-17.859 E1.85282
G1 F3000 E-2.14718
G0 F3600 X-86.541 Y-17.332
G1 F3000 E1.85282
G1 F1500 X-92.67 Y-17.332 E2.2669
G1 F3000 E-1.7331
G0 F3600 X-90.993 Y-16.781
G1 F3000 E2.2669
G1 F1500 X-90.993 Y-17.928 E2.34439
G1 F3000 E-1.65561
G0 F3600 X-86.66 Y-17.928
G1 F3000 E2.34439
G1 F1500 X-86.66 Y-16.781 E2.42188
G1 F3000 E-1.57812
G0 F3600 X-86.66 Y-16.876
G0 X-94.326 Y-16.864
G0 X-94.326 Y23.942
G0 X-86.66 Y23.954
G0 X-86.66 Y23.859
G1 F3000 E2.42188
G1 F1500 X-86.66 Y25.006 E2.49937
G1 F3000 E-1.50063
G0 F3600 X-90.993 Y25.006
G1 F3000 E2.49937
G1 F1500 X-90.993 Y23.859 E2.57686
G1 F3000 E-1.42314
G0 F3600 X-90.993 Y23.954
G0 X-64.995 Y23.954
G0 X-64.995 Y23.859
G1 F3000 E2.57686
G1 F1500 X-64.995 Y24.937 E2.64969
G1 F3000 E-1.35031
G0 F3600 X-60.662 Y24.937
G1 F3000 E2.64969
G1 F1500 X-60.662 Y23.859 E2.72252
G1 F3000 E-1.27748
;MESH:?????????????????????.stl
G0 F3600 X-60.662 Y23.954
G0 X-49.02 Y23.942
G0 X-4.204 Y13.315
G0 X-2.896 Y12.945
G0 X-1.609 Y13.871
;TYPE:WALL-INNER
G1 F3000 E2.72252
G1 F1500 X-1.341 Y14.353 E2.75978
G1 X-1.003 Y14.791 E2.79716
G1 X-.695 Y15.116 E2.82741
G1 X-.274 Y15.477 E2.86487
G1 X0.29 Y15.83 E2.90982
G1 X0.794 Y16.047 E2.9469
G1 X1.655 Y16.269 E3.00697
G1 X2.199 Y16.323 E3.0439
G1 X3.348 Y16.323 E3.12153
G1 X3.948 Y16.231 E3.16254
G1 X4.478 Y16.093 E3.19954
G1 X5.102 Y15.827 E3.24536
G1 X5.566 Y15.537 E3.28233
G1 X6.006 Y15.195 E3.31998
G1 X6.39 Y14.791 E3.35764
G1 X6.728 Y14.352 E3.39507
G1 X6.997 Y13.867 E3.43254
G1 X7.172 Y13.461 E3.46241
G1 X7.37 Y12.754 E3.51201
G1 X7.643 Y11.825 E3.57743
G1 X7.918 Y10.943 E3.63984
G1 X8.203 Y10.083 E3.70105
G1 X8.514 Y9.192 E3.76481
G1 X8.837 Y8.325 E3.82732
G1 X9.191 Y7.424 E3.89272
G1 X9.527 Y6.612 E3.95209
G1 X9.895 Y5.767 E4.01435
G1 X10.487 Y4.464 E4.11104
G1 X10.798 Y3.52 E4.17819
G1 X10.993 Y2.55 E4.24503
G1 X11.061 Y1.717 E4.3015
G1 X11.061 Y1.053 E4.34636
G1 X10.996 Y0.225 E4.40247
G1 X10.797 Y-.76 E4.47036
G1 X10.495 Y-1.686 E4.53616
G1 X9.9 Y-3.001 E4.63368
G1 X9.532 Y-3.847 E4.696
G1 X9.173 Y-4.715 E4.75946
G1 X8.841 Y-5.561 E4.82086
G1 X8.491 Y-6.503 E4.88876
G1 X8.212 Y-7.298 E4.94568
G1 X7.919 Y-8.175 E5.00815
G1 X7.643 Y-9.059 E5.07071
G1 X7.354 Y-10.068 E5.14162
G1 F1315.8 X7.232 Y-10.808 E5.19938
G1 F1199.3 X7.251 Y-11.538 E5.26109
G1 F1205.2 X7.236 Y-12.34 E5.32854
G1 F1166.3 X7.128 Y-12.945 E5.38194
G1 F1132.4 X6.973 Y-13.481 E5.43187
G1 F1104.2 X6.693 Y-14.091 E5.49347
G1 F1084.5 X6.322 Y-14.649 E5.55608
G1 F1069.1 X5.948 Y-15.055 E5.60841
G1 F1060.9 X5.536 Y-15.426 E5.66137
G1 F1054.1 X4.974 Y-15.786 E5.72553
G1 F1056.3 X4.471 Y-16.018 E5.77868
G1 F1072.6 X3.622 Y-16.253 E5.8619
G1 F1080.9 X3.065 Y-16.311 E5.91441
G1 F1084.5 X2.369 Y-16.321 E5.97945
G1 F1083.3 X1.777 Y-16.254 E6.03518
G1 F1066.7 X0.923 Y-16.017 E6.11938
G1 F1056.3 X0.419 Y-15.794 E6.17225
G1 F1058.6 X-.143 Y-15.43 E6.23634
G1 F1063.2 X-.555 Y-15.063 E6.28893
G1 F1072.6 X-.93 Y-14.656 E6.34122
G1 F1082.1 X-1.298 Y-14.098 E6.40382
G1 F1104.2 X-1.583 Y-13.493 E6.46519
G1 F1139 X-1.741 Y-12.953 E6.51525
G1 F1167.7 X-1.848 Y-12.344 E6.56892
G1 F1200.7 X-1.862 Y-11.804 E6.61451
G1 F1211.2 X-1.854 Y-11.076 E6.67542
G1 F1333.8 X-1.936 Y-10.393 E6.72769
G1 F1500 X-2.002 Y-9.934 E6.75902
G1 X-2.256 Y-9.07 E6.81986
G1 X-2.531 Y-8.188 E6.88228
G1 X-2.816 Y-7.328 E6.94348
G1 X-3.127 Y-6.437 E7.00724
G1 X-3.45 Y-5.57 E7.06975
G1 X-3.787 Y-4.713 E7.13196
G1 X-4.14 Y-3.858 E7.19446
G1 X-4.506 Y-3.015 E7.25654
G1 X-5.021 Y-1.876 E7.34099
G1 X-5.257 Y-1.247 E7.38638
G1 X-5.44 Y-.603 E7.43161
G1 X-5.573 Y0.044 E7.47624
G1 X-5.653 Y0.706 E7.52129
G1 X-5.679 Y1.369 E7.56611
G1 X-5.647 Y2.201 E7.62237
G1 X-5.489 Y3.192 E7.69016
G1 X-5.262 Y3.986 E7.74595
G1 X-5.027 Y4.619 E7.79157
G1 X-4.513 Y5.757 E7.87593
G1 X-4.145 Y6.603 E7.93826
G1 X-3.794 Y7.456 E8.00058
G1 X-3.455 Y8.317 E8.06309
G1 X-3.131 Y9.184 E8.12562
G1 X-2.938 Y9.736 E8.16513
G1 X-2.533 Y10.933 E8.2505
G1 X-2.262 Y11.801 E8.31194
G1 X-2.006 Y12.666 E8.37288
G1 X-1.829 Y13.348 E8.42048
G1 X-1.761 Y13.509 E8.43229
G0 F1350 X-1.609 Y13.871
G0 F3600 X3.94 Y11.638
G0 X5.021 Y10.974
G0 X5.9 Y9.754
G0 X6.333 Y7.792
G1 F1500 X6.379 Y8.321 E8.46817
G1 X6.325 Y9.034 E8.51647
G1 X6.144 Y9.688 E8.56232
G1 X6.033 Y9.947 E8.58136
G1 X5.636 Y10.63 E8.63473
G1 X5.104 Y11.173 E8.68608
G1 X4.632 Y11.525 E8.72586
G1 X4.006 Y11.841 E8.77324
G1 X3.107 Y12.056 E8.83569
G1 X2.448 Y12.062 E8.88021
G1 X1.798 Y11.968 E8.92458
G1 X1.157 Y11.741 E8.97052
G1 X0.565 Y11.403 E9.01658
G1 X-0.098 Y10.811 E9.07663
G1 X-.536 Y10.166 E9.1293
G1 X-.873 Y9.383 E9.18689
G1 X-.986 Y8.682 E9.23486
G1 X-.977 Y7.983 E9.28209
G1 X-.83 Y7.283 E9.33041
G1 X-.601 Y6.707 E9.37229
G1 X-.143 Y6.002 E9.42909
G1 X0.352 Y5.521 E9.47572
G1 X0.835 Y5.187 E9.51539
G1 X1.299 Y4.977 E9.5498
G1 X0.835 Y4.775 E9.58399
G1 X0.343 Y4.459 E9.6235
G1 X-.289 Y3.864 E9.68214
G1 X-.708 Y3.257 E9.73197
G1 X-1.06 Y2.383 E9.79562
G1 X-1.173 Y1.692 E9.84293
G1 X-1.172 Y1.059 E9.88569
G1 X-1.067 Y0.42 E9.92944
G1 X-.835 Y-.248 E9.97722
G1 X-.438 Y-.897 E10.02862
G1 X-.21 Y-1.183 E10.05333
G1 X0.406 Y-1.767 E10.11067
G1 X1.223 Y-2.217 E10.17369
G1 X1.932 Y-2.43 E10.2237
G1 X2.86 Y-2.505 E10.2866
G1 X3.786 Y-2.349 E10.35005
G1 X4.451 Y-2.086 E10.39836
G1 X5.055 Y-1.697 E10.4469
G1 X5.514 Y-1.283 E10.48866
G1 X5.915 Y-.778 E10.53222
G1 X6.225 Y-.223 E10.57517
G1 X6.458 Y0.415 E10.62106
G1 X6.582 Y1.385 E10.68712
G1 X6.456 Y2.344 E10.75247
G1 X6.227 Y2.973 E10.79769
G1 X5.931 Y3.516 E10.83947
G1 X5.495 Y4.064 E10.88679
G1 X5.007 Y4.489 E10.9305
G1 X4.568 Y4.767 E10.96561
G1 X4.115 Y4.965 E10.99901
G1 X4.888 Y5.39 E11.05861
G1 X5.607 Y6.089 E11.12635
G1 X6.004 Y6.735 E11.17758
G1 X6.252 Y7.408 E11.22604
G0 F1350 X6.255 Y7.417
G0 X6.333 Y7.792
G0 F3600 X5.418 Y6.197
G0 X4.094 Y5.126
G0 X3.852 Y5.562
G1 F1466.2 X4.505 Y5.921 E11.27754
G1 F1488.5 X5.048 Y6.45 E11.32915
G1 F1500 X5.395 Y6.976 E11.37173
G1 X5.674 Y7.718 E11.42528
G1 X5.731 Y8.377 E11.46997
G1 X5.68 Y8.95 E11.50883
G1 X5.503 Y9.563 E11.55194
G1 X5.11 Y10.239 E11.60477
G1 X4.693 Y10.669 E11.64523
G1 X4.322 Y10.947 E11.67656
G1 X3.774 Y11.222 E11.71798
G1 X3.043 Y11.404 E11.76887
G1 X2.465 Y11.411 E11.80792
G1 X1.95 Y11.328 E11.84317
G1 X1.467 Y11.162 E11.87767
G1 X0.955 Y10.88 E11.91716
G1 X0.39 Y10.374 E11.9684
G1 X0.025 Y9.836 E12.01233
G1 X-.236 Y9.201 E12.05871
G1 X-.338 Y8.633 E12.0977
G1 X-.332 Y8.068 E12.13587
G1 X-.22 Y7.508 E12.17445
G1 X-0.035 Y7.034 E12.20883
G1 X0.354 Y6.422 E12.25782
G1 X0.766 Y6.022 E12.29661
G1 X1.23 Y5.703 E12.33466
G1 X1.892 Y5.442 E12.38273
G1 F1442.3 X2.468 Y5.316 E12.42416
G1 F1398.9 X3.195 Y5.334 E12.47684
G1 F1429.6 X3.852 Y5.562 E12.52614
G0 F3600 X4.094 Y5.126
G0 X3.155 Y4.6
G1 F1356.1 X2.482 Y4.619 E12.57645
G1 F1427.5 X2.054 Y4.546 E12.60728
G1 F1484 X1.256 Y4.272 E12.66489
G1 F1500 X0.749 Y3.951 E12.70543
G1 X0.214 Y3.439 E12.75546
G1 X-.131 Y2.951 E12.79584
G1 X-.401 Y2.279 E12.84477
G1 X-.518 Y1.674 E12.8864
G1 X-.523 Y1.153 E12.9216
G1 X-.438 Y0.586 E12.96033
G1 X-.241 Y0.026 E13.00044
G1 X0.175 Y-.653 E13.05423
G1 X0.795 Y-1.24 E13.11192
G1 X1.476 Y-1.609 E13.16424
G1 X2.041 Y-1.786 E13.20425
G1 X2.831 Y-1.852 E13.2578
G1 X3.414 Y-1.754 E13.29774
G1 X3.608 Y-1.716 E13.3111
G1 X4.142 Y-1.511 E13.34974
G1 X4.646 Y-1.192 E13.39004
G1 X5.047 Y-.83 E13.42654
G1 X5.372 Y-.42 E13.46188
G1 X5.632 Y0.045 E13.49788
G1 X5.831 Y0.622 E13.53911
G1 X5.927 Y1.379 E13.59066
G1 X5.831 Y2.128 E13.64168
G1 X5.635 Y2.703 E13.68272
G1 X5.363 Y3.187 E13.72023
G1 X5 Y3.634 E13.75913
G1 X4.62 Y3.966 E13.79322
G1 F1477.3 X4.153 Y4.26 E13.83108
G1 F1429.6 X3.402 Y4.546 E13.88804
G1 F1365.5 X3.155 Y4.6 E13.90681
G0 F3600 X3.483 Y4.979
G0 X4.884 Y4.321
G0 X5.741 Y3.421
G0 X6.257 Y2.262
G0 X6.258 Y0.492
G0 X5.735 Y-.676
G0 X4.874 Y-1.575
G0 X3.737 Y-2.143
G0 X1.948 Y-2.218
G0 X0.516 Y-1.584
G0 X-.642 Y-.157
G0 X-.962 Y1.074
G0 X-.855 Y2.324
G0 X-.138 Y3.715
G0 X1.182 Y4.775
G0 X1.554 Y3.715
;TYPE:WALL-OUTER
G1 F1500 X1.14 Y3.463 E13.93955
G1 X0.682 Y3.025 E13.98237
G1 X0.409 Y2.621 E14.01531
G1 X0.185 Y2.063 E14.05593
G1 X0.103 Y1.608 E14.08716
G1 X0.104 Y1.151 E14.11804
G1 X0.178 Y0.715 E14.14792
G1 X0.324 Y0.306 E14.17726
G1 X0.665 Y-.257 E14.22172
G1 X1.157 Y-.725 E14.2676
G1 X1.746 Y-1.044 E14.31285
G1 X2.137 Y-1.163 E14.34047
G1 X2.774 Y-1.221 E14.38368
G1 X3.308 Y-1.138 E14.42019
G1 X3.888 Y-.932 E14.46177
G1 X4.258 Y-.702 E14.49121
G1 X4.591 Y-.402 E14.52149
G1 X4.85 Y-0.076 E14.54962
G1 X5.049 Y0.276 E14.57693
G1 X5.213 Y0.725 E14.60923
G1 X5.298 Y1.378 E14.65372
G1 X5.213 Y2.027 E14.69794
G1 X5.075 Y2.421 E14.72614
G1 X4.841 Y2.843 E14.75874
G1 X4.579 Y3.17 E14.78705
G1 X4.249 Y3.463 E14.81686
G1 X3.83 Y3.714 E14.84986
G1 F1502.3 X3.254 Y3.917 E14.89106
G1 X2.614 Y3.975 E14.93441
G1 F1500 X2.164 Y3.923 E14.96501
G1 X1.598 Y3.73 E15.00541
G0 F1350 X1.554 Y3.715
G0 F3600 X1.255 Y3.533
G0 X0.666 Y4.493
G0 X-.43 Y6.721
G0 X0.515 Y7.331
G1 F1500 X0.84 Y6.824 E15.0461
G1 X1.164 Y6.504 E15.07686
G1 X1.52 Y6.261 E15.10598
G1 X2.086 Y6.037 E15.14711
G1 X2.522 Y5.966 E15.17695
G1 X3.12 Y6 E15.21742
G1 X3.581 Y6.127 E15.24972
G1 X4.131 Y6.432 E15.29221
G1 X4.596 Y6.883 E15.33598
G1 X4.836 Y7.257 E15.366
G1 X5.058 Y7.854 E15.40903
G1 X5.112 Y8.473 E15.45101
G1 X5.06 Y8.87 E15.47806
G1 X4.908 Y9.343 E15.51162
G1 X4.59 Y9.879 E15.55373
G1 X4.286 Y10.195 E15.58335
G1 X3.953 Y10.44 E15.61128
G1 X3.568 Y10.634 E15.64041
G1 X2.979 Y10.779 E15.68139
G1 X2.535 Y10.79 E15.7114
G1 X2.132 Y10.729 E15.73893
G1 X1.711 Y10.587 E15.76895
G1 X1.34 Y10.38 E15.79765
G1 X0.862 Y9.959 E15.84069
G1 X0.597 Y9.582 E15.87182
G1 X0.366 Y9.033 E15.91206
G1 X0.285 Y8.585 E15.94282
G1 X0.287 Y8.15 E15.9722
G1 X0.367 Y7.724 E16.00149
G1 X0.377 Y7.699 E16.00331
G0 F1350 X0.515 Y7.331
G0 F3600 X0.703 Y7.037
G0 X-.241 Y6.428
G0 X-.962 Y1.69
G0 X-.779 Y-11.93
G0 X-.451 Y-13.134
G0 X0.286 Y-14.125
G0 X1.927 Y-15.363
;TYPE:WALL-INNER
G1 F1085.7 X2.462 Y-15.434 E16.05368
G1 F1090.6 X3.275 Y-15.392 E16.12933
G1 F1083.3 X3.593 Y-15.334 E16.15956
G1 F1071.4 X4.165 Y-15.155 E16.21625
G1 F1069.1 X4.997 Y-14.698 E16.30623
G1 F1075 X5.626 Y-14.07 E16.39002
G1 F1089.4 X6.066 Y-13.415 E16.46343
G1 F1127.2 X6.329 Y-12.664 E16.53497
G1 F1169.1 X6.415 Y-12.262 E16.5706
G1 F1205.2 X6.457 Y-11.538 E16.63158
G1 F1199.3 X6.404 Y-10.879 E16.68745
G1 F1315.8 X6.147 Y-10.327 E16.73435
G1 F1500 X6.039 Y-10.07 E16.75318
G1 X5.664 Y-9.42 E16.80388
G1 X5.162 Y-8.877 E16.85384
G1 X4.682 Y-8.512 E16.89458
G1 X4.038 Y-8.172 E16.94378
G1 X3.151 Y-7.948 E17.00558
G1 X2.425 Y-7.935 E17.05464
G1 X1.785 Y-8.039 E17.09844
G1 X1.186 Y-8.251 E17.14137
G1 X0.568 Y-8.594 E17.18912
G1 X0.041 Y-9.065 E17.23687
G1 X-.199 Y-9.333 E17.26118
G1 X-.59 Y-9.948 E17.31042
G1 F1413 X-1.043 Y-11.051 E17.39593
G1 F1263 X-1.069 Y-11.974 E17.47002
G1 F1177.5 X-.93 Y-12.726 E17.53584
G1 F1131.1 X-.736 Y-13.288 E17.5891
G1 F1100.5 X-.271 Y-14.043 E17.67076
G1 F1079.7 X0.213 Y-14.533 E17.7354
G1 F1067.9 X0.835 Y-14.983 E17.80825
G1 F1069.1 X1.617 Y-15.289 E17.88785
G1 F1075 X1.927 Y-15.363 E17.9179
G0 F3600 X-.317 Y-15.659
G0 X-.622 Y-16.055
G1 F1500 X-1.109 Y-15.618 E17.9621
G1 X-1.548 Y-15.131 E18.0064
G1 X-1.98 Y-14.469 E18.05981
G1 X-2.3 Y-13.749 E18.11304
G1 X-2.473 Y-13.11 E18.15776
G1 X-2.586 Y-12.402 E18.2062
G1 X-2.589 Y-10.236 E18.35253
G1 X-3.094 Y-8.561 E18.47073
G1 X-3.43 Y-7.542 E18.54322
G1 X-3.737 Y-6.664 E18.60606
G1 X-4.055 Y-5.808 E18.66775
G1 X-4.388 Y-4.961 E18.72923
G1 X-4.736 Y-4.117 E18.79091
G1 X-5.099 Y-3.283 E18.85236
G1 X-5.622 Y-2.124 E18.93827
G1 X-5.875 Y-1.45 E18.9869
G1 X-6.072 Y-.758 E19.03551
G1 X-6.215 Y-0.06 E19.08365
G1 X-6.301 Y0.654 E19.13224
G1 X-6.329 Y1.369 E19.18058
G1 X-6.295 Y2.265 E19.24115
G1 X-6.125 Y3.333 E19.31422
G1 X-5.88 Y4.189 E19.37437
G1 X-5.628 Y4.867 E19.42324
G1 X-5.109 Y6.017 E19.50848
G1 X-4.746 Y6.852 E19.56999
G1 X-4.398 Y7.694 E19.63154
G1 X-4.064 Y8.544 E19.69324
G1 X-3.744 Y9.4 E19.75498
G1 X-3.551 Y9.952 E19.79449
G1 X-3.154 Y11.126 E19.87822
G1 X-2.885 Y11.986 E19.93909
G1 X-2.62 Y12.885 E20.00241
G1 X-2.447 Y13.557 E20.04929
G1 X-2.194 Y14.156 E20.09322
G1 X-1.886 Y14.711 E20.13611
G1 X-1.497 Y15.215 E20.17912
G1 X-1.144 Y15.587 E20.21376
G1 X-.661 Y16.002 E20.25679
G1 X-0.013 Y16.408 E20.30845
G1 X0.569 Y16.658 E20.35124
G1 X1.07 Y16.812 E20.38665
G1 X1.557 Y16.913 E20.42025
G1 X2.168 Y16.973 E20.46173
G1 X3.397 Y16.973 E20.54476
G1 X4.079 Y16.868 E20.59138
G1 X4.688 Y16.71 E20.63389
G1 X5.404 Y16.405 E20.68647
G1 X5.939 Y16.07 E20.72911
G1 X6.444 Y15.678 E20.7723
G1 X6.884 Y15.214 E20.8155
G1 X7.273 Y14.711 E20.85846
G1 X7.582 Y14.154 E20.90149
G1 X7.782 Y13.686 E20.93588
G1 X7.936 Y13.192 E20.97084
G1 X8 Y12.912 E20.99024
G1 X8.264 Y12.018 E21.05322
G1 X8.535 Y11.148 E21.11478
G1 X8.817 Y10.297 E21.17535
G1 X9.123 Y9.419 E21.23817
G1 X9.442 Y8.563 E21.29988
G1 X9.792 Y7.672 E21.36455
G1 X10.123 Y6.872 E21.42305
G1 X10.487 Y6.036 E21.48465
G1 X11.094 Y4.701 E21.58372
G1 X11.428 Y3.686 E21.65592
G1 X11.638 Y2.641 E21.72793
G1 X11.711 Y1.743 E21.78879
G1 X11.711 Y1.028 E21.8371
G1 X11.641 Y0.135 E21.89762
G1 X11.427 Y-.925 E21.97067
G1 X11.102 Y-1.921 E22.04146
G1 X10.496 Y-3.26 E22.14075
G1 X10.133 Y-4.096 E22.20233
G1 X9.778 Y-4.953 E22.26499
G1 X9.45 Y-5.788 E22.3256
G1 X9.131 Y-6.645 E22.38738
G1 X8.829 Y-7.504 E22.4489
G1 X8.54 Y-8.369 E22.51051
G1 X8.267 Y-9.241 E22.57224
G1 X7.979 Y-10.242 E22.64262
G1 X7.973 Y-12.397 E22.78821
G1 X7.862 Y-13.1 E22.83629
G1 X7.692 Y-13.735 E22.8807
G1 X7.373 Y-14.458 E22.93409
G1 X6.942 Y-15.122 E22.98757
G1 X6.505 Y-15.611 E23.03188
G1 X6.015 Y-16.05 E23.07632
G1 X5.354 Y-16.482 E23.12967
G1 X4.753 Y-16.75 E23.17413
G1 X4.242 Y-16.916 E23.21043
G1 X3.742 Y-17.021 E23.24495
G1 X3.105 Y-17.086 E23.2882
G1 X2.299 Y-17.086 E23.34266
G1 X1.659 Y-17.023 E23.38611
G1 X1.15 Y-16.915 E23.42126
G1 X0.643 Y-16.753 E23.45722
G1 X0.044 Y-16.487 E23.5015
G1 X-.292 Y-16.269 E23.52856
G0 F1350 X-.622 Y-16.055
G0 F3600 X-.317 Y-15.659
G0 X3.342 Y-15.051
G0 X4.777 Y-14.428
G0 X5.79 Y-13.231
G0 X6.181 Y-11.504
G0 X5.9 Y-10.246
