;FLAVOR:Marlin
;TIME:5439
;Filament used: 6.00954m
;Layer height: 0.2
;MINX:-74.653
;MINY:25.669
;MINZ:0.2
;MAXX:-25.347
;MAXY:74.331
;MAXZ:38
;Generated with Cura_SteamEngine 5.0.0
M82 ;absolute extrusion mode
M104 S220.0 ; set nozzle temperature but do not wait
M190 S65 ; set bed temperature and wait
M109 S220.0 ; block waiting for nozzle temp
G21 ;metric values
G90 ;absolute positioning
M82 ;set extruder to absolute mode
M107 ;start with the fan off
G28 ;Home
G1 Z15.0 F1000;short move
G92 E0 ;zero the extruded length
G1 F200 E3 ;extrude 3mm of feed stock adjust so I don't have to remove any filament
G92 E0 ;zero the extruded length again
G1 F4000 ;move to bed
;Put printing message on LCD screen
M117 Printing...
;G5; this is in order to resume on Power failure (only works on SD prints)
G92 E0
G92 E0
G1 F3000 E-4
;LAYER_COUNT:190
;LAYER:0
M107
G1 F600 Z1.2
G0 F3600 X-27.036 Y25.997 Z1.2
;TYPE:SUPPORT
G1 F600 Z0.2
G1 F3000 E0
G1 F1500 X-32.923 Y25.997 E0.31818
G0 F3600 X-30.331 Y25.669
G1 F1500 X-30.331 Y26.55 E0.36579
G1 F3000 E-3.63421
G0 F3600 X-54.43 Y25.997
G1 F3000 E0.36579
G1 F1500 X-59.443 Y25.997 E0.63674
G0 F3600 X-56.329 Y25.762
G1 F1500 X-56.329 Y26.55 E0.67933
G1 F3000 E-3.32067
G0 F3600 X-74.653 Y26.597
G0 X-74.653 Y73.403
G0 X-56.329 Y73.45
G1 F3000 E0.67933
G1 F1500 X-56.329 Y74.238 E0.72192
G0 F3600 X-54.065 Y73.66
G1 F1500 X-59.926 Y73.66 E1.03869
G1 F3000 E-2.96131
G0 F3600 X-32.924 Y73.66
G1 F3000 E1.03869
G1 F1500 X-27.036 Y73.66 E1.35692
G0 F3600 X-30.331 Y73.45
G1 F1500 X-30.331 Y74.331 E1.40454
G1 F3000 E-2.59546
;MESH:????????????????????????????????????3mm???.stl
G0 F3600 X-30.331 Y72.07
G0 X-37.297 Y59.807
G1 F3000 E1.40454
G0 F3600 X-36.872 Y59.177
;TYPE:WALL-OUTER
G1 F1500 X-37.213 Y58.905 E1.42811
G1 X-37.507 Y58.483 E1.45591
G1 X-37.657 Y57.999 E1.4833
G1 X-37.656 Y57.496 E1.51048
G1 X-37.506 Y57.018 E1.53756
G1 X-37.215 Y56.599 E1.56513
G1 X-36.802 Y56.282 E1.59327
G1 X-36.331 Y56.111 E1.62035
G1 X-35.835 Y56.086 E1.6472
G1 X-35.353 Y56.208 E1.67407
G1 X-34.925 Y56.467 E1.70111
G1 X-34.598 Y56.839 E1.72788
G1 X-34.389 Y57.295 E1.75499
G1 X-34.328 Y57.789 E1.78189
G1 X-34.416 Y58.291 E1.80943
G1 X-34.64 Y58.721 E1.83564
G1 X-34.991 Y59.085 E1.86297
G1 X-35.429 Y59.321 E1.88986
G1 X-35.917 Y59.42 E1.91677
G1 X-36.413 Y59.371 E1.94371
G1 X-36.419 Y59.368 E1.94407
G0 F1350 X-36.872 Y59.177
G0 F3600 X-37.145 Y58.959
G0 X-37.666 Y59.52
G0 X-38.349 Y58.115
G0 X-38.145 Y56.727
G0 X-37.197 Y55.698
G0 X-35.834 Y55.38
G0 X-34.621 Y55.748
G0 X-34.684 Y55.84
;TYPE:WALL-INNER
G1 F1500 X-34.449 Y56.025 E1.96024
G1 X-34.089 Y56.427 E1.9894
G1 X-33.837 Y56.911 E2.0189
G1 X-33.747 Y57.197 E2.0351
G1 X-33.675 Y57.737 E2.06455
G1 X-33.744 Y58.289 E2.09461
G1 X-33.832 Y58.575 E2.11078
G1 X-34.074 Y59.051 E2.13965
G1 X-34.431 Y59.459 E2.16895
G1 X-34.667 Y59.649 E2.18532
G1 X-35.17 Y59.921 E2.21623
G1 X-35.672 Y60.045 E2.24418
G1 X-35.962 Y60.068 E2.2599
G1 X-36.461 Y60.028 E2.28696
G1 X-37.022 Y59.832 E2.31907
G1 X-37.276 Y59.687 E2.33488
G1 X-37.667 Y59.371 E2.36205
G1 X-38.017 Y58.895 E2.39398
G1 X-38.145 Y58.634 E2.4097
G1 X-38.296 Y58.119 E2.4387
G1 X-38.31 Y57.556 E2.46914
G1 X-38.268 Y57.267 E2.48492
G1 X-38.099 Y56.75 E2.51432
G1 X-37.804 Y56.293 E2.54372
G1 X-37.52 Y56.008 E2.56547
G1 X-37.114 Y55.71 E2.59269
G1 X-36.526 Y55.486 E2.6267
G1 X-35.985 Y55.432 E2.65608
G1 X-35.619 Y55.468 E2.67596
G1 X-35.125 Y55.596 E2.70354
G1 X-35.114 Y55.602 E2.70422
G0 F1350 X-34.684 Y55.84
G0 F3600 X-34.621 Y55.748
G0 X-33.732 Y57.039
G0 X-33.95 Y59.895
G1 F1500 X-34.342 Y60.212 E2.73146
G1 X-34.948 Y60.532 E2.7685
G1 X-35.525 Y60.678 E2.80067
G1 X-36.008 Y60.717 E2.82686
G1 X-36.571 Y60.669 E2.8574
G1 X-37.257 Y60.438 E2.89652
G1 X-37.679 Y60.197 E2.92279
G1 X-38.121 Y59.836 E2.95363
G1 X-38.553 Y59.263 E2.99242
G1 X-38.765 Y58.829 E3.01852
G1 X-38.915 Y58.338 E3.04627
G1 X-38.959 Y57.964 E3.06662
G1 X-38.957 Y57.446 E3.09462
G1 X-38.889 Y57.076 E3.11495
G1 X-38.732 Y56.577 E3.14323
G1 X-38.415 Y56.038 E3.17702
G1 X-38.094 Y55.641 E3.20462
G1 X-37.707 Y55.323 E3.23169
G1 X-37.28 Y55.073 E3.25843
G1 X-36.674 Y54.852 E3.29329
G1 X-36.037 Y54.784 E3.32792
G1 X-35.553 Y54.817 E3.35414
G1 X-34.998 Y54.949 E3.38497
G1 X-34.364 Y55.274 E3.42348
G1 X-33.973 Y55.583 E3.45041
G1 X-33.555 Y56.055 E3.48449
G1 X-33.255 Y56.623 E3.51921
G1 X-33.104 Y57.098 E3.54615
G1 X-33.025 Y57.735 E3.58084
G1 X-33.1 Y58.382 E3.61604
G1 X-33.247 Y58.859 E3.64302
G1 X-33.537 Y59.417 E3.67701
G1 X-33.628 Y59.523 E3.68456
G0 F1350 X-33.95 Y59.895
G0 F3600 X-33.655 Y57.956
G0 X-34.041 Y44.188
G0 X-34.64 Y43.721
;TYPE:WALL-OUTER
G1 F1500 X-34.991 Y44.085 E3.71189
G1 X-35.429 Y44.321 E3.73878
G1 X-35.917 Y44.42 E3.76569
G1 X-36.413 Y44.371 E3.79263
G1 X-36.872 Y44.177 E3.81956
G1 X-37.254 Y43.857 E3.84649
G1 X-37.525 Y43.439 E3.87342
G1 X-37.659 Y42.96 E3.9003
G1 X-37.651 Y42.476 E3.92646
G1 X-37.487 Y41.986 E3.95439
G1 X-37.2 Y41.586 E3.981
G1 X-36.802 Y41.282 E4.00807
G1 X-36.331 Y41.112 E4.03513
G1 X-35.835 Y41.086 E4.06198
G1 X-35.353 Y41.208 E4.08885
G1 X-34.925 Y41.467 E4.11589
G1 X-34.598 Y41.839 E4.14266
G1 X-34.389 Y42.295 E4.16977
G1 X-34.328 Y42.789 E4.19667
G1 X-34.415 Y43.284 E4.22383
G0 F1350 X-34.416 Y43.291
G0 X-34.64 Y43.721
G0 F3600 X-34.883 Y43.973
G0 X-34.431 Y44.459
;TYPE:WALL-INNER
G1 F1500 X-34.667 Y44.649 E4.24021
G1 X-35.116 Y44.9 E4.26801
G1 X-35.672 Y45.045 E4.29907
G1 X-36.038 Y45.063 E4.31887
G1 X-36.518 Y45.017 E4.34493
G1 X-37.022 Y44.832 E4.37395
G1 X-37.367 Y44.615 E4.39598
G1 X-37.745 Y44.285 E4.4231
G1 X-38.052 Y43.842 E4.45223
G1 X-38.265 Y43.252 E4.48613
G1 X-38.309 Y42.962 E4.50199
G1 X-38.302 Y42.423 E4.53112
G1 X-38.283 Y42.324 E4.53657
G1 X-38.132 Y41.829 E4.56454
G1 X-37.804 Y41.293 E4.5985
G1 X-37.61 Y41.081 E4.61403
G1 X-37.133 Y40.72 E4.64637
G1 X-36.664 Y40.529 E4.67373
G1 X-36.383 Y40.464 E4.68932
G1 X-35.79 Y40.435 E4.72141
G1 X-35.217 Y40.562 E4.75313
G1 X-34.684 Y40.84 E4.78562
G1 X-34.449 Y41.025 E4.80179
G1 X-34.089 Y41.427 E4.83095
G1 X-33.837 Y41.911 E4.86045
G1 X-33.747 Y42.197 E4.87665
G1 X-33.675 Y42.737 E4.9061
G1 X-33.744 Y43.289 E4.93616
G1 X-33.832 Y43.575 E4.95233
G1 X-34.074 Y44.051 E4.9812
G1 X-34.107 Y44.089 E4.98392
G0 F1350 X-34.431 Y44.459
G0 F3600 X-34.356 Y44.54
G0 X-35.811 Y45.119
G0 X-37.178 Y44.814
G0 X-38.959 Y42.964
G1 F1500 X-38.957 Y42.446 E5.01191
G1 X-38.915 Y42.172 E5.02689
G1 X-38.771 Y41.691 E5.05403
G1 X-38.565 Y41.259 E5.0799
G1 X-38.251 Y40.807 E5.10964
G1 X-37.707 Y40.323 E5.149
G1 X-37.28 Y40.073 E5.17574
G1 X-36.753 Y39.873 E5.20621
G1 X-36.036 Y39.784 E5.24526
G1 X-35.553 Y39.817 E5.27142
G1 X-35.019 Y39.943 E5.30108
G1 X-34.364 Y40.274 E5.34074
G1 X-33.973 Y40.583 E5.36768
G1 X-33.555 Y41.055 E5.40175
G1 X-33.255 Y41.623 E5.43647
G1 X-33.104 Y42.098 E5.46341
G1 X-33.025 Y42.735 E5.4981
G1 X-33.1 Y43.382 E5.5333
G1 X-33.247 Y43.859 E5.56028
G1 X-33.537 Y44.417 E5.59427
G1 X-33.95 Y44.895 E5.62841
G1 X-34.342 Y45.212 E5.65566
G1 X-34.858 Y45.496 E5.68749
G1 X-35.525 Y45.678 E5.72486
G1 X-36.008 Y45.717 E5.75105
G1 X-36.666 Y45.65 E5.7868
G1 X-37.257 Y45.438 E5.82073
G1 X-37.679 Y45.197 E5.847
G1 X-38.087 Y44.868 E5.87533
G1 X-38.472 Y44.381 E5.90888
G1 X-38.73 Y43.929 E5.93701
G1 X-38.884 Y43.45 E5.9642
G0 F1350 X-38.885 Y43.446
G0 X-38.959 Y42.964
G0 F3600 X-37.753 Y41.145
G0 X-27.085 Y34.544
G0 X-26.325 Y34.544
;TYPE:WALL-OUTER
G1 F1500 X-26.325 Y27.575 E6.34086
G1 X-73.674 Y27.576 E8.89997
G1 X-73.675 Y72.425 E11.32395
G1 X-26.325 Y72.425 E13.88311
G1 X-26.325 Y35.036 E15.9039
G0 F1350 X-26.325 Y34.544
G0 F3600 X-26.325 Y34.194
G0 X-26.975 Y34.544
;TYPE:WALL-INNER
G1 F1500 X-26.975 Y28.225 E16.24543
G1 X-73.024 Y28.226 E18.73427
G1 X-73.025 Y71.775 E21.088
G1 X-26.975 Y71.775 E23.5769
G1 X-26.975 Y35.036 E25.56255
G0 F1350 X-26.975 Y34.544
G0 F3600 X-27.625 Y34.544
G1 F1500 X-27.625 Y28.875 E25.86895
G1 X-72.374 Y28.876 E28.28753
G1 X-72.375 Y71.125 E30.57099
G1 X-27.625 Y71.125 E32.98963
G1 X-27.625 Y35.036 E34.94016
G0 F1350 X-27.625 Y34.544
G0 F3600 X-57.726 Y40.334
G0 X-57.835 Y41.086
;TYPE:WALL-OUTER
G1 F1500 X-57.353 Y41.208 E34.96703
G1 X-56.925 Y41.467 E34.99407
G1 X-56.598 Y41.839 E35.02084
G1 X-56.389 Y42.295 E35.04795
G1 X-56.326 Y42.774 E35.07406
G1 X-56.408 Y43.272 E35.10134
G1 X-56.64 Y43.721 E35.12866
G1 X-56.991 Y44.085 E35.15599
G1 X-57.429 Y44.321 E35.18288
G1 X-57.917 Y44.42 E35.20979
G1 X-58.413 Y44.371 E35.23673
G1 X-58.872 Y44.177 E35.26366
G1 X-59.254 Y43.857 E35.29059
G1 X-59.525 Y43.439 E35.31752
G1 X-59.659 Y42.96 E35.3444
G1 X-59.646 Y42.457 E35.37159
G1 X-59.487 Y41.986 E35.39846
G1 X-59.2 Y41.586 E35.42507
G1 X-58.802 Y41.282 E35.45214
G1 X-58.331 Y41.112 E35.4792
G1 X-58.327 Y41.111 E35.47943
G0 F1350 X-57.835 Y41.086
G0 F3600 X-57.496 Y41.171
G0 X-57.273 Y40.432
G0 X-58.879 Y40.541
G0 X-59.97 Y41.423
G0 X-60.378 Y42.758
G0 X-59.956 Y44.098
G0 X-59.07 Y44.932
G0 X-59.022 Y44.832
;TYPE:WALL-INNER
G1 F1500 X-59.367 Y44.615 E35.50145
G1 X-59.722 Y44.313 E35.52664
G1 X-60.018 Y43.895 E35.55433
G1 X-60.145 Y43.634 E35.57001
G1 X-60.295 Y43.128 E35.59854
G1 X-60.31 Y42.556 E35.62947
G1 X-60.268 Y42.267 E35.64525
G1 X-60.116 Y41.789 E35.67236
G1 X-59.804 Y41.293 E35.70403
G1 X-59.61 Y41.081 E35.71956
G1 X-59.133 Y40.72 E35.75189
G1 X-58.664 Y40.529 E35.77926
G1 X-58.383 Y40.464 E35.79485
G1 X-57.79 Y40.435 E35.82694
G1 X-57.208 Y40.565 E35.85917
G1 X-56.683 Y40.84 E35.8912
G1 X-56.449 Y41.025 E35.90732
G1 X-56.112 Y41.395 E35.93437
G1 X-55.837 Y41.911 E35.96598
G1 X-55.747 Y42.196 E35.98213
G1 X-55.675 Y42.725 E36.01098
G1 X-55.679 Y42.838 E36.0171
G1 X-55.756 Y43.357 E36.04545
G1 X-56.004 Y43.929 E36.07915
G1 X-56.246 Y44.255 E36.10109
G1 X-56.594 Y44.602 E36.12765
G1 X-57.08 Y44.883 E36.158
G1 X-57.672 Y45.045 E36.19117
G1 X-58.038 Y45.063 E36.21097
G1 X-58.518 Y45.017 E36.23704
G1 X-58.56 Y45.001 E36.23946
G0 F1350 X-59.022 Y44.832
G0 F3600 X-59.07 Y44.932
G0 X-60.885 Y43.446
G1 F1500 X-60.959 Y42.963 E36.26587
G1 X-60.953 Y42.393 E36.29668
G1 X-60.771 Y41.691 E36.33588
G1 X-60.565 Y41.258 E36.3618
G1 X-60.266 Y40.825 E36.39024
G1 X-59.707 Y40.323 E36.43084
G1 X-59.28 Y40.073 E36.45759
G1 X-58.753 Y39.873 E36.48805
G1 X-58.036 Y39.784 E36.5271
G1 X-57.553 Y39.817 E36.55327
G1 X-57.004 Y39.947 E36.58376
G1 X-56.363 Y40.274 E36.62265
G1 X-55.973 Y40.583 E36.64954
G1 X-55.594 Y41.003 E36.68012
G1 X-55.255 Y41.623 E36.71831
G1 X-55.123 Y41.998 E36.7398
G1 X-55.043 Y42.495 E36.76701
G1 X-55.032 Y42.902 E36.78901
G1 X-55.121 Y43.496 E36.82147
G1 X-55.247 Y43.859 E36.84224
G1 X-55.472 Y44.313 E36.86963
G1 X-55.765 Y44.691 E36.89548
G1 X-56.12 Y45.057 E36.92303
G1 X-56.691 Y45.413 E36.9594
G1 X-57.134 Y45.587 E36.98513
G1 X-57.754 Y45.715 E37.01934
G1 X-58.409 Y45.689 E37.05477
G1 X-58.937 Y45.562 E37.08412
G1 X-59.501 Y45.32 E37.11729
G1 X-59.995 Y44.947 E37.15075
G1 X-60.325 Y44.594 E37.17687
G1 X-60.636 Y44.129 E37.2071
G1 X-60.717 Y43.908 E37.21982
G0 F1350 X-60.885 Y43.446
G0 F3600 X-60.349 Y58.115
G0 X-59.847 Y59.331
G0 X-59.254 Y58.857
;TYPE:WALL-OUTER
G1 F1500 X-59.525 Y58.439 E37.24675
G1 X-59.659 Y57.96 E37.27363
G1 X-59.646 Y57.457 E37.30083
G1 X-59.487 Y56.986 E37.32769
G1 X-59.2 Y56.586 E37.3543
G1 X-58.802 Y56.282 E37.38137
G1 X-58.331 Y56.111 E37.40845
G1 X-57.835 Y56.086 E37.43529
G1 X-57.353 Y56.208 E37.46217
G1 X-56.925 Y56.467 E37.4892
G1 X-56.598 Y56.839 E37.51597
G1 X-56.389 Y57.295 E37.54308
G1 X-56.328 Y57.789 E37.56999
G1 X-56.387 Y58.195 E37.59216
G1 X-56.602 Y58.67 E37.62034
G1 X-56.936 Y59.045 E37.64748
G1 X-57.368 Y59.3 E37.6746
G1 X-57.884 Y59.42 E37.70323
G1 X-58.413 Y59.371 E37.73194
G1 X-58.872 Y59.177 E37.75887
G1 X-58.877 Y59.173 E37.75922
G0 F1350 X-59.254 Y58.857
G0 F3600 X-59.444 Y58.564
G0 X-60.111 Y58.955
G0 X-58.857 Y59.967
G0 X-57.156 Y60.033
G0 X-57.188 Y59.927
;TYPE:WALL-INNER
G1 F1500 X-57.725 Y60.056 E37.78907
G1 X-58.363 Y60.04 E37.82356
G1 X-58.647 Y59.977 E37.83929
G1 X-59.113 Y59.791 E37.8664
G1 X-59.591 Y59.437 E37.89855
G1 X-59.789 Y59.226 E37.91419
G1 X-60.11 Y58.727 E37.94626
G1 X-60.289 Y58.158 E37.9785
G1 X-60.31 Y57.556 E38.01105
G1 X-60.268 Y57.267 E38.02684
G1 X-60.116 Y56.789 E38.05395
G1 X-59.804 Y56.293 E38.08562
G1 X-59.52 Y56.008 E38.10736
G1 X-59.114 Y55.71 E38.13458
G1 X-58.526 Y55.486 E38.16859
G1 X-57.985 Y55.432 E38.19798
G1 X-57.619 Y55.468 E38.21785
G1 X-57.09 Y55.612 E38.24749
G1 X-56.603 Y55.891 E38.27782
G1 X-56.175 Y56.32 E38.31057
G1 X-56.016 Y56.55 E38.32569
G1 X-55.784 Y57.042 E38.35508
G1 X-55.686 Y57.593 E38.38533
G1 X-55.685 Y57.883 E38.40101
G1 X-55.744 Y58.289 E38.42318
G1 X-55.831 Y58.575 E38.43934
G1 X-56.097 Y59.083 E38.47033
G1 X-56.431 Y59.459 E38.49751
G1 X-56.667 Y59.648 E38.51385
G1 X-56.755 Y59.695 E38.51925
G0 F1350 X-57.188 Y59.927
G0 F3600 X-57.156 Y60.033
G0 X-55.1 Y58.382
G1 F1500 X-55.247 Y58.859 E38.54622
G1 X-55.489 Y59.341 E38.57537
G1 X-55.95 Y59.895 E38.61433
G1 X-56.343 Y60.212 E38.64162
G1 X-56.83 Y60.484 E38.67176
G1 X-57.525 Y60.678 E38.71076
G1 X-58.008 Y60.717 E38.73695
G1 X-58.571 Y60.669 E38.76749
G1 X-59.257 Y60.438 E38.80661
G1 X-59.679 Y60.197 E38.83288
G1 X-60.116 Y59.841 E38.86334
G1 X-60.553 Y59.263 E38.90251
G1 X-60.765 Y58.829 E38.92861
G1 X-60.926 Y58.29 E38.95902
G1 X-60.96 Y57.557 E38.99868
G1 X-60.889 Y57.076 E39.02495
G1 X-60.715 Y56.537 E39.05557
G1 X-60.343 Y55.93 E39.09404
G1 X-60.019 Y55.577 E39.11994
G1 X-59.605 Y55.247 E39.14856
G1 X-59.222 Y55.05 E39.17183
G1 X-58.674 Y54.852 E39.20333
G1 X-58.037 Y54.784 E39.23795
G1 X-57.553 Y54.817 E39.26417
G1 X-57.022 Y54.941 E39.29364
G1 X-56.363 Y55.274 E39.33355
G1 X-55.973 Y55.582 E39.36041
G1 X-55.606 Y55.987 E39.38995
G1 X-55.255 Y56.623 E39.42921
G1 X-55.104 Y57.098 E39.45615
G1 X-55.03 Y57.603 E39.48373
G1 X-55.04 Y57.894 E39.49947
G0 F1350 X-55.042 Y57.976
G0 X-55.1 Y58.382
G0 F3600 X-56.733 Y61.108
;TYPE:SKIN
G1 F1500 X-57.476 Y61.297 E39.54091
G1 X-58.009 Y61.333 E39.56978
G1 X-58.669 Y61.278 E39.60557
G1 X-59.103 Y61.16 E39.62988
G1 X-59.666 Y60.932 E39.66271
G1 X-60.068 Y60.678 E39.68841
G1 X-60.528 Y60.301 E39.72056
G1 X-60.842 Y59.933 E39.7467
G1 X-61.163 Y59.45 E39.77805
G1 X-61.355 Y59.007 E39.80414
G1 X-61.524 Y58.442 E39.83602
G1 X-61.576 Y57.959 E39.86227
G1 X-61.568 Y57.361 E39.8946
G1 X-61.475 Y56.88 E39.92108
G1 X-61.208 Y56.139 E39.96365
G1 X-60.86 Y55.589 E39.99882
G1 X-60.444 Y55.13 E40.0323
G1 X-59.973 Y54.752 E40.06494
G1 X-59.477 Y54.488 E40.09531
G1 X-58.848 Y54.261 E40.13145
G1 X-58.277 Y54.207 E40.16245
G1 X-57.742 Y54.167 E40.19145
G1 X-57.071 Y54.291 E40.22833
G1 X-56.575 Y54.454 E40.25655
G1 X-56.062 Y54.736 E40.28819
G1 X-55.65 Y55.036 E40.31573
G1 X-55.246 Y55.457 E40.34727
G1 X-54.944 Y55.869 E40.37488
G1 X-54.702 Y56.346 E40.40379
G1 X-54.526 Y56.841 E40.43218
G1 X-54.439 Y57.367 E40.461
G1 X-54.414 Y57.89 E40.4893
G1 X-54.486 Y58.456 E40.52013
G1 X-54.612 Y58.946 E40.54748
G1 X-54.86 Y59.477 E40.57915
G1 X-55.188 Y59.975 E40.61138
G1 X-55.632 Y60.449 E40.64648
G1 X-56.051 Y60.756 E40.67456
G1 X-56.296 Y60.883 E40.68947
G0 F1350 X-56.733 Y61.108
G0 F3600 X-39.571 Y58.129
G1 F1500 X-39.576 Y57.527 E40.72201
G1 X-39.517 Y57.028 E40.74917
G1 X-39.356 Y56.494 E40.77931
G1 X-39.15 Y56.03 E40.80675
G1 X-38.802 Y55.508 E40.84066
G1 X-38.439 Y55.124 E40.86922
G1 X-37.973 Y54.752 E40.90145
G1 X-37.477 Y54.488 E40.93182
G1 X-36.848 Y54.261 E40.96796
G1 X-36.277 Y54.207 E40.99896
G1 X-35.742 Y54.167 E41.02795
G1 X-35.076 Y54.291 E41.06457
G1 X-34.476 Y54.509 E41.09907
G1 X-33.817 Y54.897 E41.1404
G1 X-33.255 Y55.447 E41.1829
G1 X-32.902 Y55.951 E41.21616
G1 X-32.586 Y56.628 E41.25654
G1 X-32.493 Y57.014 E41.278
G1 X-32.41 Y57.701 E41.3154
G1 X-32.492 Y58.506 E41.35913
G1 X-32.679 Y59.095 E41.39253
G1 X-33.008 Y59.732 E41.43128
G1 X-33.483 Y60.302 E41.47138
G1 X-33.992 Y60.719 E41.50695
G1 X-34.698 Y61.095 E41.55018
G1 X-35.475 Y61.297 E41.59357
G1 X-36.009 Y61.333 E41.6225
G1 X-36.669 Y61.278 E41.65829
G1 X-37.103 Y61.16 E41.6826
G1 X-37.666 Y60.932 E41.71543
G1 X-38.076 Y60.671 E41.7417
G1 X-38.673 Y60.148 E41.7846
G1 X-39.058 Y59.617 E41.82005
G1 X-39.298 Y59.168 E41.84756
G1 X-39.301 Y59.16 E41.84802
