;FLAVOR:Marlin
;TIME:6454
;Filament used: 7.96431m
;Layer height: 0.2
;MINX:25.347
;MINY:-75.424
;MINZ:0.2
;MAXX:73.675
;MAXY:-24.483
;MAXZ:38
;Generated with Cura_SteamEngine 5.0.0
M82 ;absolute extrusion mode
M104 S220.0 ; set nozzle temperature but do not wait
M190 S65 ; set bed temperature and wait
M109 S220.0 ; block waiting for nozzle temp
G21 ;metric values
G90 ;absolute positioning
M82 ;set extruder to absolute mode
M107 ;start with the fan off
G28 ;Home
G1 Z15.0 F1000;short move
G92 E0 ;zero the extruded length
G1 F200 E3 ;extrude 3mm of feed stock adjust so I don't have to remove any filament
G92 E0 ;zero the extruded length again
G1 F4000 ;move to bed
;Put printing message on LCD screen
M117 Printing...
;G5; this is in order to resume on Power failure (only works on SD prints)
G92 E0
G92 E0
G1 F3000 E-4
;LAYER_COUNT:190
;LAYER:0
M107
G1 F600 Z1.2
G0 F3600 X43.33 Y-24.483 Z1.2
;TYPE:SUPPORT
G1 F600 Z0.2
G1 F3000 E0
G1 F1500 X43.33 Y-25.55 E0.05767
G1 F3000 E-3.94233
G0 F3600 X25.347 Y-25.597
G0 X25.347 Y-74.403
G0 X43.33 Y-74.45
G1 F3000 E0.05767
G1 F1500 X43.33 Y-75.424 E0.11031
G1 F3000 E-3.88969
;MESH:????????????????????????????????????4mm???.stl
G0 F3600 X43.33 Y-73.07
G0 X39.948 Y-56.243
G0 X41.319 Y-53.917
G1 F3000 E0.11031
G0 F3600 X41.542 Y-54.646
;TYPE:WALL-OUTER
G1 F1500 X41.126 Y-54.824 E0.13477
G1 X40.743 Y-55.145 E0.16178
G1 X40.474 Y-55.564 E0.18869
G1 X40.341 Y-56.041 E0.21545
G1 X40.341 Y-56.48 E0.23918
G1 X40.483 Y-56.961 E0.26628
G1 X40.778 Y-57.395 E0.29465
G1 X41.199 Y-57.719 E0.32336
G1 X41.67 Y-57.89 E0.35044
G1 X42.167 Y-57.914 E0.37734
G1 X42.648 Y-57.791 E0.40417
G1 X43.076 Y-57.532 E0.43121
G1 X43.403 Y-57.159 E0.45802
G1 X43.611 Y-56.703 E0.48511
G1 X43.672 Y-56.21 E0.51195
G1 X43.584 Y-55.708 E0.5395
G1 X43.358 Y-55.276 E0.56585
G1 X43.007 Y-54.914 E0.5931
G1 X42.524 Y-54.668 E0.6224
G1 X42.03 Y-54.585 E0.64947
G0 F1350 X42.024 Y-54.584
G0 X41.542 Y-54.646
G0 F3600 X41.22 Y-54.783
G0 X40.89 Y-54.087
G0 X39.863 Y-55.211
G0 X39.747 Y-57.16
G0 X39.85 Y-57.12
;TYPE:WALL-INNER
G1 F1500 X39.976 Y-57.383 E0.66523
G1 X40.323 Y-57.859 E0.69707
G1 X40.782 Y-58.231 E0.729
G1 X41.337 Y-58.472 E0.76171
G1 X41.62 Y-58.538 E0.77741
G1 X42.214 Y-58.564 E0.80955
G1 X42.795 Y-58.434 E0.84173
G1 X43.318 Y-58.159 E0.87366
G1 X43.552 Y-57.974 E0.88978
G1 X43.926 Y-57.551 E0.9203
G1 X44.165 Y-57.084 E0.94865
G1 X44.253 Y-56.802 E0.96462
G1 X44.325 Y-56.274 E0.99342
G1 X44.256 Y-55.71 E1.02413
G1 X44.168 Y-55.423 E1.04036
G1 X43.932 Y-54.959 E1.06849
G1 X43.564 Y-54.538 E1.09871
G1 X43.275 Y-54.319 E1.11831
G1 X42.788 Y-54.064 E1.14802
G1 X42.19 Y-53.933 E1.18111
G1 X41.636 Y-53.96 E1.21109
G1 X41.306 Y-54.04 E1.22944
G1 X40.83 Y-54.24 E1.25735
G1 X40.407 Y-54.564 E1.28614
G1 X40.207 Y-54.778 E1.30197
G1 X39.888 Y-55.277 E1.33398
G1 X39.711 Y-55.844 E1.36609
G1 X39.69 Y-56.445 E1.39859
G1 X39.694 Y-56.544 E1.40395
G1 X39.722 Y-56.645 E1.40961
G0 F1350 X39.85 Y-57.12
G0 F3600 X39.747 Y-57.16
G0 X40.803 Y-58.303
G0 X42.167 Y-58.62
G0 X43.475 Y-58.114
G0 X44.97 Y-56.396
G1 F1500 X44.959 Y-56.023 E1.42978
G1 X44.879 Y-55.504 E1.45816
G1 X44.752 Y-55.139 E1.47905
G1 X44.528 Y-54.687 E1.50631
G1 X44.256 Y-54.331 E1.53053
G1 X43.879 Y-53.942 E1.55981
G1 X43.307 Y-53.586 E1.59622
G1 X42.861 Y-53.411 E1.62211
G1 X42.246 Y-53.286 E1.65603
G1 X41.59 Y-53.311 E1.69151
G1 X41.071 Y-53.434 E1.72034
G1 X40.606 Y-53.622 E1.74745
G1 X40.003 Y-54.054 E1.78754
G1 X39.67 Y-54.411 E1.81393
G1 X39.361 Y-54.877 E1.84415
G1 X39.114 Y-55.557 E1.88325
G1 X39.041 Y-56.038 E1.90954
G1 X39.047 Y-56.607 E1.9403
G1 X39.228 Y-57.31 E1.97953
G1 X39.439 Y-57.748 E2.00581
G1 X39.761 Y-58.207 E2.03611
G1 X40.294 Y-58.678 E2.07456
G1 X40.721 Y-58.928 E2.1013
G1 X41.25 Y-59.128 E2.13187
G1 X41.969 Y-59.217 E2.17102
G1 X42.451 Y-59.182 E2.19714
G1 X42.999 Y-59.051 E2.2276
G1 X43.638 Y-58.725 E2.26637
G1 X44.028 Y-58.416 E2.29326
G1 X44.392 Y-58.016 E2.32249
G1 X44.748 Y-57.371 E2.36231
G1 X44.896 Y-56.901 E2.38894
G1 X44.899 Y-56.883 E2.38993
G0 F1350 X44.97 Y-56.396
G0 F3600 X39.726 Y-41.94
G0 X40.341 Y-41.041
;TYPE:WALL-OUTER
G1 F1500 X40.354 Y-41.543 E2.41707
G1 X40.514 Y-42.017 E2.44411
G1 X40.801 Y-42.415 E2.47063
G1 X41.199 Y-42.719 E2.4977
G1 X41.67 Y-42.89 E2.52478
G1 X42.213 Y-42.904 E2.55414
G1 X42.648 Y-42.791 E2.57843
G1 X43.076 Y-42.532 E2.60547
G1 X43.403 Y-42.159 E2.63228
G1 X43.611 Y-41.703 E2.65936
G1 X43.672 Y-41.21 E2.68621
G1 X43.584 Y-40.708 E2.71376
G1 X43.358 Y-40.276 E2.74011
G1 X43.036 Y-39.933 E2.76554
G1 X42.6 Y-39.687 E2.79259
G1 X42.105 Y-39.58 E2.81996
G1 X41.586 Y-39.63 E2.84815
G1 X41.126 Y-39.824 E2.87513
G1 X40.743 Y-40.145 E2.90214
G1 X40.474 Y-40.564 E2.92905
G1 X40.473 Y-40.567 E2.92922
G0 F1350 X40.341 Y-41.041
G0 F3600 X40.35 Y-41.391
G0 X39.577 Y-41.449
G0 X40.174 Y-42.747
G0 X40.887 Y-43.291
;TYPE:WALL-INNER
G1 F1500 X41.475 Y-43.515 E2.96323
G1 X42.019 Y-43.569 E2.99277
G1 X42.355 Y-43.538 E3.01101
G1 X42.849 Y-43.414 E3.03854
G1 X43.318 Y-43.159 E3.06739
G1 X43.613 Y-42.908 E3.08833
G1 X43.958 Y-42.5 E3.1172
G1 X44.192 Y-42.022 E3.14597
G1 X44.314 Y-41.406 E3.17991
G1 X44.315 Y-41.116 E3.19558
G1 X44.228 Y-40.578 E3.22504
G1 X43.995 Y-40.068 E3.25534
G1 X43.838 Y-39.838 E3.27039
G1 X43.496 Y-39.47 E3.29755
G1 X43.418 Y-39.407 E3.30297
G1 X42.982 Y-39.15 E3.33032
G1 X42.715 Y-39.044 E3.34585
G1 X42.134 Y-38.93 E3.37785
G1 X41.538 Y-38.972 E3.41014
G1 X40.975 Y-39.17 E3.44239
G1 X40.722 Y-39.314 E3.45813
G1 X40.271 Y-39.694 E3.49
G1 X39.98 Y-40.11 E3.51744
G1 X39.854 Y-40.37 E3.53306
G1 X39.705 Y-40.873 E3.56141
G1 X39.69 Y-41.445 E3.59234
G1 X39.732 Y-41.733 E3.60807
G1 X39.884 Y-42.213 E3.63528
G1 X40.199 Y-42.711 E3.66713
G1 X40.477 Y-42.99 E3.68842
G1 X40.49 Y-43 E3.6893
G0 F1350 X40.887 Y-43.291
G0 F3600 X40.84 Y-43.389
G0 X42.519 Y-43.57
G0 X43.739 Y-42.871
G0 X44.349 Y-41.614
G0 X43.8 Y-38.881
G1 F1500 X43.307 Y-38.586 E3.72035
G1 X42.861 Y-38.411 E3.74625
G1 X42.314 Y-38.293 E3.77649
G1 X41.59 Y-38.311 E3.81563
G1 X41.115 Y-38.418 E3.84195
G1 X40.588 Y-38.632 E3.87269
G1 X40.003 Y-39.054 E3.91168
G1 X39.67 Y-39.411 E3.93806
G1 X39.361 Y-39.877 E3.96829
G1 X39.114 Y-40.557 E4.00739
G1 X39.041 Y-41.038 E4.03368
G1 X39.047 Y-41.607 E4.06444
G1 X39.228 Y-42.31 E4.10367
G1 X39.439 Y-42.748 E4.12995
G1 X39.778 Y-43.227 E4.16166
G1 X40.294 Y-43.678 E4.1987
G1 X40.721 Y-43.928 E4.22545
G1 X41.328 Y-44.149 E4.26036
G1 X41.969 Y-44.217 E4.2952
G1 X42.498 Y-44.172 E4.32389
G1 X43.09 Y-44.018 E4.35696
G1 X43.638 Y-43.725 E4.39054
G1 X44.028 Y-43.416 E4.41743
G1 X44.393 Y-43.014 E4.44678
G1 X44.748 Y-42.371 E4.48648
G1 X44.896 Y-41.901 E4.51311
G1 X44.97 Y-41.396 E4.5407
G1 X44.959 Y-41.023 E4.56086
G1 X44.879 Y-40.504 E4.58925
G1 X44.752 Y-40.139 E4.61013
G1 X44.509 Y-39.654 E4.63945
G1 X44.15 Y-39.226 E4.66965
G0 F1350 X44.044 Y-39.1
G0 X43.8 Y-38.881
G0 F3600 X62.283 Y-42.972
G0 X62.801 Y-42.415
;TYPE:WALL-OUTER
G1 F1500 X63.114 Y-42.669 E4.69143
G1 X63.576 Y-42.868 E4.71862
G1 X64.121 Y-42.921 E4.74822
G1 X64.617 Y-42.807 E4.77572
G1 X65.076 Y-42.532 E4.80464
G1 X65.403 Y-42.159 E4.83145
G1 X65.611 Y-41.703 E4.85854
G1 X65.672 Y-41.21 E4.88539
G1 X65.584 Y-40.708 E4.91293
G1 X65.359 Y-40.276 E4.93926
G1 X65.007 Y-39.914 E4.96655
G1 X64.569 Y-39.678 E4.99344
G1 X64.082 Y-39.58 E5.02029
G1 X63.586 Y-39.63 E5.04723
G1 X63.126 Y-39.824 E5.07422
G1 X62.743 Y-40.145 E5.10122
G1 X62.474 Y-40.564 E5.12814
G1 X62.341 Y-41.041 E5.1549
G1 X62.354 Y-41.543 E5.18204
G1 X62.514 Y-42.016 E5.20903
G0 F1350 X62.514 Y-42.017
G0 X62.801 Y-42.415
G0 F3600 X63.072 Y-42.635
G0 X62.64 Y-43.264
G0 X61.726 Y-41.94
G0 X61.731 Y-40.543
G0 X62.927 Y-39.069
G0 X62.975 Y-39.17
;TYPE:WALL-INNER
G1 F1500 X62.722 Y-39.314 E5.22476
G1 X62.33 Y-39.631 E5.25201
G1 X61.98 Y-40.11 E5.28407
G1 X61.854 Y-40.37 E5.29969
G1 X61.704 Y-40.882 E5.32852
G1 X61.69 Y-41.445 E5.35896
G1 X61.732 Y-41.733 E5.37469
G1 X61.9 Y-42.248 E5.40397
G1 X62.199 Y-42.711 E5.43376
G1 X62.477 Y-42.99 E5.45505
G1 X62.704 Y-43.174 E5.47084
G1 X63.006 Y-43.341 E5.48949
G1 X63.475 Y-43.515 E5.51653
G1 X64.019 Y-43.569 E5.54608
G1 X64.355 Y-43.538 E5.56431
G1 X64.876 Y-43.403 E5.5934
G1 X65.318 Y-43.159 E5.62069
G1 X65.552 Y-42.974 E5.63681
G1 X65.913 Y-42.571 E5.66605
G1 X66.164 Y-42.084 E5.69566
G1 X66.253 Y-41.802 E5.71165
G1 X66.325 Y-41.262 E5.74109
G1 X66.256 Y-40.71 E5.77116
G1 X66.168 Y-40.423 E5.78738
G1 X65.924 Y-39.945 E5.81639
G1 X65.564 Y-39.538 E5.84576
G1 X65.331 Y-39.351 E5.8619
G1 X64.829 Y-39.078 E5.89279
G1 X64.325 Y-38.954 E5.92084
G1 X64.037 Y-38.932 E5.93645
G1 X63.538 Y-38.972 E5.96351
G1 X63.439 Y-39.007 E5.96918
G0 F1350 X62.975 Y-39.17
G0 F3600 X62.927 Y-39.069
G0 X61.233 Y-40.176
G1 F1500 X61.085 Y-40.664 E5.99674
G1 X61.041 Y-41.037 E6.01704
G1 X61.043 Y-41.555 E6.04504
G1 X61.11 Y-41.923 E6.06526
G1 X61.267 Y-42.421 E6.09348
G1 X61.564 Y-42.932 E6.12542
G1 X61.905 Y-43.359 E6.15496
G1 X62.294 Y-43.678 E6.18215
G1 X62.721 Y-43.928 E6.20889
G1 X63.328 Y-44.149 E6.24381
G1 X63.969 Y-44.217 E6.27864
G1 X64.498 Y-44.172 E6.30734
G1 X65.001 Y-44.051 E6.3353
G1 X65.638 Y-43.725 E6.37398
G1 X66.028 Y-43.416 E6.40087
G1 X66.448 Y-42.941 E6.43514
G1 X66.748 Y-42.371 E6.46995
G1 X66.896 Y-41.901 E6.49658
G1 X66.975 Y-41.265 E6.53122
G1 X66.9 Y-40.617 E6.56648
G1 X66.752 Y-40.139 E6.59352
G1 X66.46 Y-39.578 E6.62771
G1 X66.044 Y-39.1 E6.66195
G1 X65.655 Y-38.787 E6.68894
G1 X65.051 Y-38.467 E6.72588
G1 X64.471 Y-38.321 E6.75821
G1 X63.991 Y-38.283 E6.78423
G1 X63.427 Y-38.331 E6.81483
G1 X62.739 Y-38.564 E6.85408
G1 X62.319 Y-38.804 E6.88023
G1 X61.875 Y-39.167 E6.91123
G1 X61.449 Y-39.735 E6.9496
G0 F1350 X61.443 Y-39.743
G0 X61.233 Y-40.176
G0 F3600 X65.436 Y-54.289
G0 X65.007 Y-54.914
;TYPE:WALL-OUTER
G1 F1500 X64.524 Y-54.668 E6.9789
G1 X64.024 Y-54.584 E7.0063
G1 X63.542 Y-54.646 E7.03256
G1 X63.126 Y-54.824 E7.05702
G1 X62.72 Y-55.178 E7.08613
G1 X62.474 Y-55.564 E7.11087
G1 X62.341 Y-56.041 E7.13764
G1 X62.354 Y-56.543 E7.16478
G1 X62.501 Y-56.997 E7.19057
G1 X62.801 Y-57.415 E7.21838
G1 X63.199 Y-57.719 E7.24545
G1 X63.67 Y-57.89 E7.27253
G1 X64.167 Y-57.914 E7.29942
G1 X64.648 Y-57.791 E7.32625
G1 X65.076 Y-57.532 E7.35329
G1 X65.403 Y-57.159 E7.3801
G1 X65.611 Y-56.703 E7.40719
G1 X65.672 Y-56.21 E7.43404
G1 X65.584 Y-55.708 E7.46159
G1 X65.359 Y-55.276 E7.48791
G1 X65.35 Y-55.267 E7.4886
G0 F1350 X65.007 Y-54.914
G0 F3600 X64.696 Y-54.756
G0 X65.331 Y-54.351
;TYPE:WALL-INNER
G1 F1500 X64.883 Y-54.1 E7.51635
G1 X64.325 Y-53.954 E7.54753
G1 X63.979 Y-53.936 E7.56625
G1 X63.482 Y-53.983 E7.59323
G1 X62.975 Y-54.17 E7.62244
G1 X62.635 Y-54.383 E7.64413
G1 X62.251 Y-54.718 E7.67167
G1 X61.947 Y-55.161 E7.70071
G1 X61.735 Y-55.751 E7.73459
G1 X61.691 Y-56.039 E7.75034
G1 X61.698 Y-56.578 E7.77947
G1 X61.85 Y-57.12 E7.8099
G1 X61.937 Y-57.321 E7.82173
G1 X62.239 Y-57.765 E7.85075
G1 X62.704 Y-58.174 E7.88423
G1 X62.96 Y-58.323 E7.90023
G1 X63.428 Y-58.503 E7.92734
G1 X64.019 Y-58.569 E7.95948
G1 X64.309 Y-58.548 E7.97519
G1 X64.876 Y-58.403 E8.00682
G1 X65.318 Y-58.159 E8.03411
G1 X65.552 Y-57.974 E8.05023
G1 X65.913 Y-57.571 E8.07947
G1 X66.164 Y-57.084 E8.10909
G1 X66.253 Y-56.802 E8.12507
G1 X66.325 Y-56.262 E8.15451
G1 X66.256 Y-55.71 E8.18458
G1 X66.168 Y-55.423 E8.2008
G1 X65.924 Y-54.945 E8.22981
G1 X65.692 Y-54.683 E8.24872
G0 F1350 X65.564 Y-54.538
G0 X65.331 Y-54.351
G0 F3600 X65.393 Y-54.259
G0 X63.833 Y-53.88
G0 X61.549 Y-54.588
G1 F1500 X61.269 Y-55.073 E8.27899
G1 X61.114 Y-55.557 E8.30646
G1 X61.041 Y-56.037 E8.3327
G1 X61.043 Y-56.555 E8.3607
G1 X61.11 Y-56.923 E8.38091
G1 X61.267 Y-57.421 E8.40914
G1 X61.374 Y-57.645 E8.42255
G1 X61.662 Y-58.076 E8.45057
G1 X61.982 Y-58.424 E8.47612
G1 X62.424 Y-58.773 E8.50656
G1 X63.098 Y-59.077 E8.54652
G1 X63.57 Y-59.186 E8.5727
G1 X64.095 Y-59.221 E8.60114
G1 X64.451 Y-59.182 E8.6205
G1 X64.987 Y-59.055 E8.65027
G1 X65.638 Y-58.725 E8.68972
G1 X66.028 Y-58.416 E8.71661
G1 X66.448 Y-57.941 E8.75088
G1 X66.748 Y-57.371 E8.78569
G1 X66.896 Y-56.901 E8.81232
G1 X66.975 Y-56.265 E8.84696
G1 X66.9 Y-55.617 E8.88222
G1 X66.752 Y-55.139 E8.90926
G1 X66.46 Y-54.578 E8.94345
G1 X66.044 Y-54.1 E8.9777
G1 X65.655 Y-53.787 E9.00468
G1 X65.141 Y-53.503 E9.03642
G1 X64.471 Y-53.321 E9.07394
G1 X63.933 Y-53.287 E9.10308
G1 X63.334 Y-53.35 E9.13563
G1 X62.739 Y-53.564 E9.16981
G1 X62.319 Y-53.804 E9.19595
G1 X61.91 Y-54.133 E9.22432
G1 X61.855 Y-54.203 E9.22913
G0 F1350 X61.549 Y-54.588
G0 F3600 X61.649 Y-56.596
G0 X62.25 Y-57.859
G0 X72.915 Y-65.58
G0 X73.675 Y-65.58
;TYPE:WALL-OUTER
G1 F1500 X73.675 Y-73.425 E9.65314
G1 X26.325 Y-73.425 E12.2123
G1 X26.325 Y-26.575 E14.74443
G1 X73.675 Y-26.575 E17.30359
G1 X73.675 Y-65.088 E19.38513
G0 F1350 X73.675 Y-65.58
G0 F3600 X73.675 Y-65.93
G0 X73.025 Y-65.58
;TYPE:WALL-INNER
G1 F1500 X73.025 Y-72.775 E19.77401
G1 X26.975 Y-72.775 E22.2629
G1 X26.975 Y-27.225 E24.72478
G1 X73.025 Y-27.225 E27.21367
G1 X73.025 Y-65.088 E29.26008
G0 F1350 X73.025 Y-65.58
G0 F3600 X72.375 Y-65.58
G1 F1500 X72.375 Y-72.125 E29.61383
G1 X27.625 Y-72.125 E32.03246
G1 X27.625 Y-27.875 E34.42407
G1 X72.375 Y-27.875 E36.84271
G1 X72.375 Y-65.088 E38.85399
G0 F1350 X72.375 Y-65.58
G0 F3600 X71.758 Y-71.508
;TYPE:SKIN
G1 F1500 X28.242 Y-71.508 E41.20593
G1 X28.242 Y-28.492 E43.53084
G1 X71.758 Y-28.492 E45.88278
G1 X71.758 Y-65.577 E47.88714
G1 X71.758 Y-71.016 E48.18111
G0 F1350 X71.758 Y-71.508
G0 F3600 X65.414 Y-52.951
G1 F1500 X64.944 Y-52.796 E48.20786
G1 X64.301 Y-52.671 E48.24326
G1 X63.741 Y-52.687 E48.27354
G1 X63.222 Y-52.743 E48.30175
G1 X62.562 Y-52.973 E48.33953
G1 X62.086 Y-53.213 E48.36834
G1 X61.621 Y-53.57 E48.40003
G1 X61.277 Y-53.906 E48.42601
G1 X60.976 Y-54.335 E48.45434
G1 X60.708 Y-54.816 E48.4841
G1 X60.529 Y-55.355 E48.5148
G1 X60.43 Y-55.859 E48.54256
G1 X60.423 Y-56.459 E48.57499
G1 X60.481 Y-56.964 E48.60246
G1 X60.628 Y-57.446 E48.6297
G1 X60.706 Y-57.676 E48.64282
G1 X60.93 Y-58.099 E48.66869
G1 X61.248 Y-58.556 E48.69878
G1 X61.597 Y-58.908 E48.72557
G1 X62.09 Y-59.293 E48.75938
G1 X62.497 Y-59.502 E48.78411
G1 X63.085 Y-59.725 E48.8181
G1 X63.539 Y-59.802 E48.84299
G1 X64.32 Y-59.825 E48.88522
G1 X64.972 Y-59.699 E48.92111
G1 X65.552 Y-59.48 E48.95462
G1 X66.185 Y-59.101 E48.99449
G1 X66.746 Y-58.551 E49.03695
G1 X67.1 Y-58.043 E49.07042
G1 X67.415 Y-57.368 E49.11068
G1 X67.507 Y-56.985 E49.13197
G1 X67.59 Y-56.298 E49.16937
G1 X67.508 Y-55.493 E49.2131
G1 X67.324 Y-54.906 E49.24635
G1 X66.99 Y-54.263 E49.28551
G1 X66.509 Y-53.691 E49.3259
G1 X66.008 Y-53.28 E49.36093
G1 X65.844 Y-53.189 E49.37106
G0 F1350 X65.414 Y-52.951
G0 F3600 X67.324 Y-39.906
G1 F1500 X66.989 Y-39.262 E49.4103
G1 X66.509 Y-38.691 E49.45062
G1 X66.005 Y-38.28 E49.48576
G1 X65.301 Y-37.902 E49.52895
G1 X64.617 Y-37.72 E49.56721
G1 X64.108 Y-37.663 E49.59489
G1 X63.35 Y-37.719 E49.63597
G1 X62.887 Y-37.843 E49.66187
G1 X62.332 Y-38.069 E49.69426
G1 X61.92 Y-38.331 E49.72065
G1 X61.324 Y-38.854 E49.76351
G1 X60.936 Y-39.392 E49.79936
G1 X60.698 Y-39.842 E49.82687
G1 X60.521 Y-40.383 E49.85764
G1 X60.429 Y-40.875 E49.88469
G1 X60.424 Y-41.474 E49.91707
G1 X60.485 Y-41.982 E49.94472
G1 X60.644 Y-42.507 E49.97437
G1 X60.845 Y-42.968 E50.00155
G1 X61.196 Y-43.487 E50.03541
G1 X61.562 Y-43.877 E50.06432
G1 X62.028 Y-44.249 E50.09655
G1 X62.478 Y-44.49 E50.12414
G1 X63.147 Y-44.738 E50.1627
G1 X63.602 Y-44.806 E50.18756
G1 X64.262 Y-44.832 E50.22326
G1 X64.941 Y-44.704 E50.26061
G1 X65.532 Y-44.488 E50.29462
G1 X66.185 Y-44.103 E50.33559
G1 X66.746 Y-43.55 E50.37816
G1 X67.1 Y-43.043 E50.41158
G1 X67.415 Y-42.368 E50.45184
G1 X67.507 Y-41.985 E50.47313
G1 X67.59 Y-41.298 E50.51053
G1 X67.592 Y-41.259 E50.51264
G1 X67.508 Y-40.493 E50.55429
G1 X67.471 Y-40.375 E50.56097
G0 F1350 X67.324 Y-39.906
G0 F3600 X64.535 Y-38.934
G0 X43.958 Y-44.252
G1 F1500 X44.377 Y-43.942 E50.58914
G1 X44.753 Y-43.543 E50.61878
G1 X45.057 Y-43.131 E50.64645
G1 X45.31 Y-42.625 E50.67703
G1 X45.48 Y-42.137 E50.70496
G1 X45.57 Y-41.574 E50.73577
G1 X45.585 Y-41.068 E50.76313
G1 X45.514 Y-40.543 E50.79176
G1 X45.374 Y-40.024 E50.82082
G1 X45.137 Y-39.516 E50.85112
G1 X44.803 Y-39.019 E50.88348
