;FLAVOR:Marlin
;TIME:10622
;Filament used: 11.2008m
;Layer height: 0.2
;MINX:-17.653
;MINY:-24.674
;MINZ:0.25
;MAXX:84.653
;MAXY:24.674
;MAXZ:44.45
;Generated with Cura_SteamEngine 5.2.1
M82 ;absolute extrusion mode
M104 S220.0 ; set nozzle temperature but do not wait
M190 S65 ; set bed temperature and wait
M109 S220.0 ; block waiting for nozzle temp
G21 ;metric values
G90 ;absolute positioning
M82 ;set extruder to absolute mode
M107 ;start with the fan off
G28 ;Home
G1 Z15.0 F1000;short move
G92 E0 ;zero the extruded length
G1 F200 E3 ;extrude 3mm of feed stock adjust so I don't have to remove any filament
G92 E0 ;zero the extruded length again
G1 F4000 ;move to bed
;Put printing message on LCD screen
M117 Printing...
;G5; this is in order to resume on Power failure (only works on SD prints)
G92 E0
G92 E0
G1 F3000 E-4
;LAYER_COUNT:222
;LAYER:0
M107
G1 F600 Z1.25
G0 F3600 X12.999 Y23.7 Z1.25
;TYPE:SUPPORT
G1 F600 Z0.25
G1 F3000 E0
G1 F1500 X12.999 Y24.674 E0.0658
G1 F3000 E-3.9342
G0 F3600 X-12.999 Y24.674
G1 F3000 E0.0658
G1 F1500 X-12.999 Y23.7 E0.13161
G1 F3000 E-3.86839
G0 F3600 X-17.653 Y23.653
G0 X-17.653 Y-23.653
G0 X-12.999 Y-23.7
G1 F3000 E0.13161
G1 F1500 X-12.999 Y-24.674 E0.19741
G1 F3000 E-3.80259
G0 F3600 X12.999 Y-24.674
G1 F3000 E0.19741
G1 F1500 X12.999 Y-23.7 E0.26321
G1 F3000 E-3.73679
G0 F3600 X51.996 Y-23.7
G1 F3000 E0.26321
G1 F1500 X51.996 Y-24.488 E0.31645
G1 F3000 E-3.68355
G0 F3600 X77.994 Y-24.581
G1 F3000 E0.31645
G1 F1500 X77.994 Y-23.7 E0.37597
G1 F3000 E-3.62403
G0 F3600 X82.327 Y-23.7
G1 F3000 E0.37597
G1 F1500 X82.327 Y-24.581 E0.43549
G1 F3000 E-3.56451
G0 F3600 X84.653 Y-23.653
G0 X84.653 Y23.653
G0 X82.327 Y23.7
G1 F3000 E0.43549
G1 F1500 X82.327 Y24.581 E0.49501
G1 F3000 E-3.50499
G0 F3600 X77.994 Y24.581
G1 F3000 E0.49501
G1 F1500 X77.994 Y23.7 E0.55453
G1 F3000 E-3.44547
G0 F3600 X51.996 Y23.7
G1 F3000 E0.55453
G1 F1500 X51.996 Y24.488 E0.60777
G1 F3000 E-3.39223
;MESH:????????????????????????????????????.stl
G0 F3600 X35.347 Y23.653
G0 X17.665 Y22.311
G0 X16.311 Y22.311
G0 X13.358 Y18.014
;TYPE:WALL-INNER
G1 F3000 E0.60777
G1 F1500 X13.308 Y18.538 E0.64333
G1 X13.116 Y19.066 E0.68129
G1 X12.948 Y19.354 E0.70381
G1 X12.622 Y19.727 E0.73728
G1 X12.422 Y19.895 E0.75493
G1 F1455.2 X11.781 Y20.266 E0.8065
G1 F1267.9 X11.426 Y20.437 E0.838
G1 F1162.1 X11.129 Y20.454 E0.86394
G1 F1159.3 X10.591 Y20.424 E0.91104
G1 F1218.8 X9.773 Y20.04 E0.98618
G1 F1392.9 X9.273 Y19.622 E1.03359
G1 F1500 X9.105 Y19.422 E1.05124
G1 X8.821 Y18.928 E1.08974
G1 X8.645 Y18.305 E1.13347
G1 X8.642 Y17.986 E1.15503
G1 X8.709 Y17.385 E1.19588
G1 X8.821 Y17.058 E1.21923
G1 X9.086 Y16.594 E1.25533
G1 X9.315 Y16.329 E1.27899
G1 X9.7 Y16.012 E1.31269
G1 X10.03 Y15.837 E1.33792
G1 X10.458 Y15.689 E1.36852
G1 X10.803 Y15.637 E1.39209
G1 X11.4 Y15.676 E1.43251
G1 X11.718 Y15.736 E1.45437
G1 X12.291 Y16.014 E1.4974
G1 X12.727 Y16.378 E1.53577
G1 X12.895 Y16.578 E1.55342
G1 X13.179 Y17.073 E1.59197
G1 X13.268 Y17.32 E1.60971
G1 X13.322 Y17.625 E1.63064
G0 F1350 X13.365 Y17.871
G0 X13.358 Y18.014
G0 F3600 X12.831 Y19.255
G0 X12.4 Y19.005
G1 F1500 X12.004 Y19.397 E1.66828
G1 X11.707 Y19.568 E1.69143
G1 X11.298 Y19.7 E1.72047
G1 X10.657 Y19.677 E1.7638
G1 X10.257 Y19.552 E1.79212
G1 X10.032 Y19.423 E1.80964
G1 X9.771 Y19.204 E1.83266
G1 X9.603 Y19.004 E1.8503
G1 X9.432 Y18.707 E1.87346
G1 X9.275 Y18.18 E1.91061
G1 X9.343 Y17.528 E1.95489
G1 X9.41 Y17.332 E1.96889
G1 X9.726 Y16.836 E2.00862
G1 X10.211 Y16.466 E2.04983
G1 X10.623 Y16.317 E2.07943
G1 X10.83 Y16.286 E2.09357
G1 X11.483 Y16.333 E2.1378
G1 X11.967 Y16.578 E2.17445
G1 X12.229 Y16.796 E2.19748
G1 X12.397 Y16.996 E2.21513
G1 X12.568 Y17.293 E2.23828
G1 X12.657 Y17.54 E2.25602
G1 X12.715 Y17.871 E2.27872
G1 X12.667 Y18.426 E2.31636
G1 X12.582 Y18.658 E2.33305
G0 F1350 X12.552 Y18.742
G0 X12.4 Y19.005
G0 F3600 X12.831 Y19.255
G0 X13.174 Y17.682
G0 X12.404 Y16.325
G0 X10.682 Y15.826
G0 X9.44 Y16.42
G0 X10.163 Y17.283
;TYPE:WALL-OUTER
G1 F1500 X10.475 Y17.032 E2.3601
G1 X10.856 Y16.911 E2.38711
G1 X11.357 Y16.959 E2.42111
G1 X11.751 Y17.198 E2.45224
G1 X11.98 Y17.505 E2.47812
G1 X12.09 Y17.871 E2.50394
G1 X12.051 Y18.318 E2.53425
G1 X11.872 Y18.67 E2.56093
G1 X11.602 Y18.919 E2.58575
G1 X11.19 Y19.084 E2.61573
G1 X10.712 Y19.054 E2.64809
G1 X10.568 Y19.009 E2.65828
G1 X10.249 Y18.802 E2.68397
G1 X10.02 Y18.495 E2.70985
G1 X9.912 Y18.167 E2.73318
G1 X9.953 Y17.666 E2.76714
G1 X9.974 Y17.628 E2.77007
G0 F1350 X10.163 Y17.283
G0 F3600 X10.436 Y17.064
G0 X9.708 Y16.195
G0 X8.846 Y-2.375
G0 X9.535 Y-3.602
G0 X10.258 Y-4.249
;TYPE:WALL-INNER
G1 F1500 X10.646 Y-4.349 E2.79714
G1 X11.387 Y-4.344 E2.8472
G1 X11.683 Y-4.268 E2.86785
G1 X12.178 Y-4.065 E2.90399
G1 X12.624 Y-3.724 E2.94192
G1 X12.858 Y-3.482 E2.96467
G1 X13.21 Y-2.824 E3.01508
G1 X13.363 Y-2.141 E3.06237
G1 X13.342 Y-1.589 E3.09969
G1 X13.179 Y-1.071 E3.13638
G1 X12.892 Y-.576 E3.17503
G1 X12.457 Y-.123 E3.21746
G1 X12.171 Y0.047 E3.23994
G1 X11.578 Y0.302 E3.28355
G1 X11.348 Y0.349 E3.29941
G1 X10.877 Y0.364 E3.33125
G1 X10.474 Y0.316 E3.35867
G1 X10.03 Y0.163 E3.39039
G1 X9.7 Y-0.012 E3.41563
G1 X9.216 Y-.431 E3.45888
G1 X9.025 Y-.68 E3.48008
G1 X8.744 Y-1.275 E3.52453
G1 X8.64 Y-1.763 E3.55824
G1 X8.648 Y-2.33 E3.59655
G1 X8.732 Y-2.683 E3.62107
G1 X8.976 Y-3.246 E3.66252
G1 X9.349 Y-3.705 E3.70248
G1 X9.718 Y-3.991 E3.73402
G1 X9.904 Y-4.08 E3.74795
G0 F1350 X10.258 Y-4.249
G0 F3600 X9.208 Y-3.213
G0 X9.344 Y-2.462
G1 F1500 X9.497 Y-2.851 E3.77619
G1 X9.772 Y-3.204 E3.80642
G1 X10.038 Y-3.425 E3.82979
G1 X10.532 Y-3.655 E3.8666
G1 X10.734 Y-3.705 E3.88066
G1 X11.285 Y-3.702 E3.91789
G1 X11.857 Y-3.499 E3.95889
G1 X12.345 Y-3.082 E4.00226
G1 X12.622 Y-2.548 E4.0429
G1 X12.713 Y-2.138 E4.07127
G1 X12.701 Y-1.701 E4.10081
G1 X12.568 Y-1.292 E4.12987
G1 X12.395 Y-.995 E4.15309
G1 X12.025 Y-.599 E4.1897
G1 X11.401 Y-.323 E4.2358
G1 X10.874 Y-.286 E4.27149
G1 X10.632 Y-.315 E4.28796
G1 X10.211 Y-.466 E4.31817
G1 X9.727 Y-.836 E4.35933
G1 X9.562 Y-1.062 E4.37824
G1 X9.344 Y-1.534 E4.41336
G1 X9.288 Y-1.804 E4.43199
G1 X9.287 Y-2.074 E4.45023
G0 F1350 X9.287 Y-2.193
G0 X9.344 Y-2.462
G0 F3600 X8.876 Y-2.633
G0 X9.278 Y-.636
G0 X10.625 Y0.154
G0 X12.172 Y-.12
G0 X11.692 Y-1.144
;TYPE:WALL-OUTER
G1 F1500 X11.23 Y-.925 E4.48477
G1 X10.824 Y-.913 E4.51222
G1 X10.475 Y-1.032 E4.53713
G1 X10.174 Y-1.273 E4.56318
G1 X9.932 Y-1.747 E4.59913
G1 X9.931 Y-2.25 E4.63312
G1 X10.054 Y-2.564 E4.6559
G1 X10.323 Y-2.867 E4.68327
G1 X10.779 Y-3.078 E4.71722
G1 X11.186 Y-3.085 E4.74472
G1 X11.549 Y-2.955 E4.77077
G1 X11.852 Y-2.698 E4.79761
G1 X12.056 Y-2.283 E4.82885
G1 X12.085 Y-1.809 E4.86093
G1 X11.938 Y-1.448 E4.88727
G0 F1350 X11.918 Y-1.398
G0 X11.692 Y-1.144
G0 F3600 X11.376 Y-.994
G0 X11.855 Y0.029
G0 X-11.908 Y19.893
G0 X-15.373 Y21.373
;TYPE:WALL-INNER
G1 F1500 X-14.401 Y21.374 E4.95294
G1 F1300 X-13.446 Y21.274 E5.02779
G1 F1159.3 X-12.871 Y21.285 E5.07806
G1 F1162.1 X-12.501 Y21.277 E5.11033
G1 F1301.7 X-11.864 Y21.374 E5.16049
G1 F1497.7 X9.599 Y21.374 E6.61276
G1 F1300 X10.554 Y21.274 E6.68761
G1 F1159.3 X11.129 Y21.285 E6.73788
G1 F1162.1 X11.499 Y21.277 E6.77015
G1 F1301.7 X12.136 Y21.374 E6.82032
G1 F1497.7 X15.375 Y21.375 E7.03948
G1 F1500 X15.375 Y-12.37 E9.31928
G1 X15.375 Y-21.375 E9.92765
G1 X-15.375 Y-21.375 E12.00511
G1 X-15.374 Y-3.601 E13.20592
G1 F1440.2 X-15.329 Y-2.68 E13.2708
G1 F1373.2 X-15.21 Y-2.94 E13.2919
G1 F1396.8 X-14.802 Y-3.564 E13.34599
G1 F1464 X-14.172 Y-4.047 E13.40094
G1 F1500 X-13.461 Y-4.331 E13.45267
G1 X-13.141 Y-4.363 E13.4744
G1 X-12.563 Y-4.335 E13.51349
G1 X-11.885 Y-4.098 E13.56201
G1 X-11.623 Y-3.931 E13.58301
G1 X-11.296 Y-3.652 E13.61205
G1 X-11.004 Y-3.284 E13.64378
G1 X-10.733 Y-2.687 E13.68808
G1 X-10.649 Y-2.333 E13.71266
G1 X-10.641 Y-1.728 E13.75354
G1 X-10.681 Y-1.486 E13.77011
G1 X-10.92 Y-.851 E13.81594
G1 X-11.07 Y-.621 E13.8345
G1 X-11.426 Y-.22 E13.87072
G1 X-11.693 Y-0.024 E13.8931
G1 X-12.29 Y0.265 E13.93791
G1 X-12.581 Y0.339 E13.9582
G1 X-13.123 Y0.364 E13.99485
G1 X-13.683 Y0.268 E14.03324
G1 X-13.929 Y0.179 E14.05091
G1 X-14.425 Y-.108 E14.08963
G1 X-14.624 Y-.276 E14.10722
G1 X-15.048 Y-.828 E14.15425
G1 F1459.6 X-15.357 Y-1.583 E14.21089
G1 X-15.375 Y-.756 E14.26832
G1 F1500 X-15.375 Y16.865 E15.45879
G1 F1444.4 X-15.349 Y17.598 E15.51025
G1 X-15.116 Y16.934 E15.55962
G1 F1500 X-14.987 Y16.709 E15.57714
G1 X-14.622 Y16.272 E15.6156
G1 X-14.422 Y16.105 E15.63321
G1 X-13.927 Y15.821 E15.67176
G1 X-13.305 Y15.645 E15.71544
G1 X-12.986 Y15.642 E15.73699
G1 X-12.322 Y15.725 E15.7822
G1 X-12.104 Y15.8 E15.79777
G1 X-11.492 Y16.144 E15.8452
G1 X-11.092 Y16.594 E15.88588
G1 X-10.873 Y16.945 E15.91383
G1 X-10.676 Y17.509 E15.95419
G1 X-10.641 Y17.739 E15.96991
G1 X-10.675 Y18.4 E16.01462
G1 X-10.736 Y18.718 E16.0365
G1 X-11.013 Y19.291 E16.0795
G1 X-11.378 Y19.727 E16.11791
G1 X-11.578 Y19.895 E16.13556
G1 F1455.2 X-12.219 Y20.266 E16.18713
G1 F1267.9 X-12.574 Y20.437 E16.21863
G1 F1162.1 X-12.871 Y20.454 E16.24457
G1 F1159.3 X-13.409 Y20.424 E16.29167
G1 F1218.8 X-14.224 Y20.042 E16.36651
G1 F1392.9 X-14.727 Y19.621 E16.41424
G1 F1500 X-14.895 Y19.422 E16.43183
G1 F1495.4 X-15.181 Y18.928 E16.47052
G1 F1455.2 X-15.358 Y18.412 E16.5085
G1 X-15.373 Y18.961 E16.54675
G1 F1495.4 X-15.373 Y21.373 E16.71021
G0 F3600 X-12.255 Y20.041
G0 X-11.796 Y19.229
G1 F1500 X-11.996 Y19.397 E16.72785
G1 X-12.293 Y19.568 E16.751
G1 X-12.702 Y19.7 E16.78004
G1 X-13.343 Y19.677 E16.82337
G1 X-13.743 Y19.552 E16.85169
G1 X-13.968 Y19.422 E16.86924
G1 X-14.229 Y19.203 E16.89226
G1 X-14.397 Y19.004 E16.90985
G1 X-14.567 Y18.707 E16.93297
G1 X-14.7 Y18.297 E16.9621
G1 X-14.677 Y17.657 E17.00536
G1 X-14.552 Y17.257 E17.03367
G1 X-14.423 Y17.032 E17.0512
G1 X-14.204 Y16.77 E17.07427
G1 X-14.004 Y16.603 E17.09187
G1 X-13.707 Y16.432 E17.11502
G1 X-13.177 Y16.274 E17.15239
G1 X-12.49 Y16.353 E17.19911
G1 X-11.961 Y16.623 E17.23923
G1 X-11.563 Y17.047 E17.27852
G1 X-11.432 Y17.293 E17.29735
G1 X-11.289 Y17.792 E17.33242
G1 X-11.331 Y18.479 E17.37892
G1 X-11.554 Y18.921 E17.41236
G0 F1350 X-11.577 Y18.968
G0 X-11.796 Y19.229
G0 F3600 X-11.476 Y19.611
G0 X-12.604 Y20.145
G0 X-13.288 Y19.054
;TYPE:WALL-OUTER
G1 F1500 X-13.432 Y19.009 E17.42256
G1 X-13.751 Y18.802 E17.44825
G1 X-13.98 Y18.495 E17.47412
G1 X-14.084 Y18.19 E17.49589
G1 X-14.054 Y17.712 E17.52825
G1 X-14.009 Y17.568 E17.53844
G1 X-13.802 Y17.249 E17.56413
G1 X-13.495 Y17.02 E17.59001
G1 X-13.167 Y16.913 E17.61332
G1 X-12.652 Y16.956 E17.64823
G1 X-12.318 Y17.136 E17.67387
G1 X-12.02 Y17.505 E17.70591
G1 X-11.919 Y17.793 E17.72653
G1 X-11.959 Y18.357 E17.76473
G1 X-12.12 Y18.657 E17.78773
G1 X-12.398 Y18.919 E17.81354
G1 X-12.81 Y19.084 E17.84352
G1 X-12.895 Y19.078 E17.84928
G0 F1350 X-13.288 Y19.054
G0 F3600 X-13.432 Y19.009
G0 X-13.599 Y18.901
G0 X-14.167 Y19.882
G0 X-15.358 Y18.412
;TYPE:WALL-INNER
G1 F1446.6 X-15.37 Y18.129 E17.86912
G1 F1431.7 X-15.349 Y17.598 E17.90674
G0 F3600 X-14.525 Y-.391
G0 X-14.204 Y-.772
G1 F1500 X-14.459 Y-1.104 E17.93502
G1 X-14.699 Y-1.698 E17.9783
G1 X-14.714 Y-2.126 E18.00724
G1 X-14.656 Y-2.462 E18.03027
G1 X-14.568 Y-2.708 E18.04792
G1 X-14.396 Y-3.006 E18.07117
G1 X-14.228 Y-3.204 E18.08871
G1 X-13.896 Y-3.459 E18.11699
G1 X-13.33 Y-3.694 E18.1584
G1 X-13.138 Y-3.713 E18.17143
G1 X-12.685 Y-3.697 E18.20206
G1 X-12.18 Y-3.519 E18.23823
G1 X-11.703 Y-3.139 E18.27943
G1 X-11.596 Y-2.996 E18.2915
G1 X-11.304 Y-2.393 E18.33676
G1 X-11.287 Y-1.807 E18.37637
G1 X-11.327 Y-1.588 E18.39141
G1 X-11.492 Y-1.16 E18.4224
G1 X-11.798 Y-.766 E18.4561
G1 X-12.023 Y-.584 E18.47565
G1 X-12.631 Y-.303 E18.5209
G1 X-13.126 Y-.286 E18.55437
G1 X-13.462 Y-.344 E18.5774
G1 X-13.708 Y-.433 E18.59508
G1 X-13.89 Y-.538 E18.60927
G0 F1350 X-14.006 Y-.604
G0 X-14.204 Y-.772
G0 F3600 X-14.525 Y-.391
G0 X-15.357 Y-1.583
G1 F1448.7 X-15.369 Y-2.124 E18.64712
G1 F1373.2 X-15.319 Y-2.702 E18.68994
G0 F3600 X-13.918 Y-2.602
;TYPE:WALL-OUTER
G1 F1500 X-13.631 Y-2.892 E18.7175
G1 X-13.136 Y-3.088 E18.75347
G1 X-12.803 Y-3.083 E18.77597
G1 X-12.433 Y-2.944 E18.80267
G1 X-12.127 Y-2.667 E18.83056
G1 X-11.932 Y-2.253 E18.86148
G1 X-11.92 Y-1.787 E18.89297
G1 X-12.058 Y-1.43 E18.91883
G1 X-12.316 Y-1.138 E18.94515
G1 X-12.804 Y-.917 E18.98134
G1 X-13.128 Y-.911 E19.00324
G1 X-13.496 Y-1.02 E19.02917
G1 X-13.801 Y-1.25 E19.05497
G1 X-13.893 Y-1.369 E19.06514
G1 X-14.083 Y-1.805 E19.09727
G1 X-14.069 Y-2.24 E19.12667
G0 F1350 X-14.069 Y-2.25
G0 X-13.918 Y-2.602
G0 F3600 X-13.672 Y-2.85
G0 X-14.158 Y-3.887
G0 X15.525 Y-12.37
G0 X16.025 Y-12.37
;TYPE:WALL-INNER
G1 F1500 X16.025 Y-22.025 E19.77896
G1 X-16.025 Y-22.025 E21.94425
G1 X-16.024 Y22.024 E24.92018
G1 X16.025 Y22.025 E27.0854
G1 X16.025 Y-11.977 E29.38256
G0 F1350 X16.025 Y-12.37
G0 F3600 X15.525 Y-12.37
G0 X-16.255 Y-22.255
G0 X-16.65 Y-22.65
;TYPE:WALL-OUTER
G1 F1500 X-16.649 Y22.649 E32.44295
G1 X16.65 Y22.65 E34.69262
G1 X16.65 Y-12.37 E37.05856
G1 X16.65 Y-22.65 E37.75307
G1 X-16.257 Y-22.65 E39.97625
G0 F1350 X-16.65 Y-22.65
G0 F3600 X-16.65 Y-22.3
G0 X-15.555 Y-21.555
G0 X-10.295 Y-.722
;TYPE:SKIN
G1 F1500 X-10.535 Y-.302 E40.00894
G1 X-10.859 Y0.087 E40.04314
G1 X-11.366 Y0.5 E40.08732
G1 X-12.033 Y0.828 E40.13753
G1 X-12.479 Y0.949 E40.16875
G1 X-13.135 Y0.983 E40.21313
G1 X-13.844 Y0.861 E40.26174
G1 X-14.139 Y0.759 E40.28282
G1 X-14.758 Y0.407 E40.33093
G1 X-14.757 Y15.591 E41.35676
G1 X-14.153 Y15.243 E41.40385
G1 X-13.426 Y15.041 E41.45483
G1 X-12.919 Y15.028 E41.48909
G1 X-12.204 Y15.119 E41.53779
G1 X-11.832 Y15.247 E41.56437
G1 X-11.232 Y15.586 E41.61092
G1 X-10.815 Y15.963 E41.6489
G1 X-10.484 Y16.38 E41.68487
G1 X-10.309 Y16.698 E41.70939
G1 X-10.085 Y17.332 E41.75482
G1 X-10.023 Y17.698 E41.7799
G1 X-10.06 Y18.441 E41.83016
G1 X-10.161 Y18.942 E41.86469
G1 X-10.483 Y19.612 E41.91491
G1 X-10.982 Y20.203 E41.96717
G1 X-11.223 Y20.397 E41.98807
G1 X-11.83 Y20.752 E42.03558
G1 X9.566 Y20.757 E43.48108
G1 X9.743 Y20.719 E43.49331
G1 X9.355 Y20.49 E43.52375
G1 X8.796 Y20.017 E43.57322
G1 X8.602 Y19.775 E43.59418
G1 X8.241 Y19.151 E43.64288
G1 X8.041 Y18.426 E43.69369
G1 X8.028 Y17.923 E43.72768
G1 X8.105 Y17.249 E43.77352
G1 X8.26 Y16.796 E43.80586
G1 X8.58 Y16.241 E43.84914
G1 X8.816 Y15.953 E43.8743
G1 X9.523 Y15.372 E43.93612
G1 X10.3 Y15.091 E43.99194
G1 X10.813 Y15.02 E44.02693
G1 X11.444 Y15.06 E44.06965
G1 X11.944 Y15.162 E44.10412
G1 X12.61 Y15.483 E44.15407
G1 X13.188 Y15.963 E44.20483
G1 X13.398 Y16.224 E44.22746
G1 F1477.3 X13.746 Y16.808 E44.2741
G1 F1348.5 X13.924 Y17.146 E44.30281
G1 F1291.4 X14.016 Y17.86 E44.3593
G1 F1317.6 X13.966 Y18.651 E44.42026
G1 F1394.8 X13.65 Y19.376 E44.47772
G1 F1500 X13.473 Y19.682 E44.5016
G1 X13.018 Y20.203 E44.54833
G1 X12.779 Y20.397 E44.56913
G1 X12.171 Y20.752 E44.61669
G1 X14.758 Y20.757 E44.79147
G1 X14.758 Y19.515 E44.87538
G1 F1394.8 X14.709 Y18.715 E44.93361
G1 F1335.6 X14.727 Y17.881 E44.99691
G1 F1308.7 X14.695 Y17.08 E45.05898
G1 F1348.5 X14.748 Y16.541 E45.09968
G1 F1477.3 X14.758 Y15.861 E45.14633
G1 F1500 X14.758 Y-.731 E46.26728
G1 F1411 X14.717 Y-1.412 E46.31628
G1 F1341.1 X14.722 Y-2.299 E46.38331
G1 F1421.3 X14.758 Y-3.128 E46.44247
G1 F1500 X14.758 Y-12.368 E47.06672
G1 X14.758 Y-20.758 E47.63355
G1 X-14.757 Y-20.757 E49.62757
G1 X-14.757 Y-4.369 E50.73474
G1 X-14.416 Y-4.614 E50.7631
G1 X-13.64 Y-4.919 E50.81944
G1 X-13.172 Y-4.979 E50.85131
G1 X-12.443 Y-4.945 E50.90062
G1 X-11.609 Y-4.651 E50.96036
G1 X-11.267 Y-4.436 E50.98765
G1 X-10.883 Y-4.112 E51.0216
G1 X-10.529 Y-3.685 E51.05907
G1 X-10.131 Y-2.884 E51.1195
G1 X-10.023 Y-2.282 E51.16082
G1 X-10.023 Y-1.719 E51.19885
G1 X-10.074 Y-1.368 E51.22281
G1 X-10.168 Y-1.094 E51.24238
G0 F1350 X-10.295 Y-.722
G0 F3600 X8.023 Y-2.281
G1 F1500 X8.082 Y-2.668 E51.26883
G1 X8.295 Y-3.279 E51.31255
G1 X8.537 Y-3.699 E51.3453
G1 X8.922 Y-4.15 E51.38536
G1 X9.438 Y-4.545 E51.42926
G1 X10.087 Y-4.842 E51.47748
G1 X10.557 Y-4.962 E51.51025
G1 X11.357 Y-4.99 E51.56433
G1 X11.912 Y-4.841 E51.60315
G1 X12.483 Y-4.605 E51.6449
G1 X13.006 Y-4.21 E51.68918
G1 F1479.5 X13.354 Y-3.856 E51.72318
G1 F1438.1 X13.779 Y-3.069 E51.78621
